<?xml version="1.0" encoding="UTF-8"?>
<map version="1.10" tiledversion="1.11.2" orientation="orthogonal" renderorder="right-down" width="84" height="52" tilewidth="48" tileheight="48" infinite="0" nextlayerid="9" nextobjectid="8">
 <tileset firstgid="1" name="Cemetery_Ground" tilewidth="48" tileheight="48" tilecount="24" columns="4">
  <image source="tiles/Cemetery_Ground.png" width="192" height="288"/>
 </tileset>
 <tileset firstgid="25" name="Cemetery_Objects" tilewidth="48" tileheight="48" tilecount="63" columns="7">
  <image source="tiles/Cemetery_Objects.png" width="336" height="432"/>
 </tileset>
 <tileset firstgid="88" name="Village_Ground" tilewidth="48" tileheight="48" tilecount="18" columns="6">
  <image source="tiles/Village_Ground.png" width="288" height="144"/>
 </tileset>
 <objectgroup id="4" name="collisions">
  <object id="1" x="2418.67" y="292">
   <point/>
  </object>
 </objectgroup>
 <objectgroup id="3" name="objects">
  <object id="4" gid="34" x="2456" y="315.333" width="48" height="48"/>
  <object id="5" gid="34" x="2355.33" y="468" width="48" height="48"/>
  <object id="7" x="13" y="24" width="316" height="24"/>
 </objectgroup>
 <layer id="1" name="ground" width="84" height="52">
  <data encoding="csv">
0,0,0,0,0,0,0,0,0,0,0,0,0,0,0,0,0,0,0,0,0,0,0,0,0,0,0,0,0,0,0,0,0,0,0,0,0,0,0,0,0,0,0,0,0,0,0,0,0,0,0,0,0,0,0,0,0,0,0,0,0,0,0,0,0,0,0,0,0,0,0,0,0,0,0,0,0,0,0,0,0,0,0,0,
14,18,14,22,18,13,14,14,22,17,22,18,18,14,13,14,17,17,14,13,17,17,1,10,17,21,5,9,1,5,2,5,1,18,10,5,16,2,16,21,21,17,18,17,13,13,3,17,18,14,17,14,14,17,18,21,14,21,14,17,14,22,14,14,14,22,18,21,18,17,21,22,22,13,13,22,18,22,18,21,18,21,21,18,
17,22,17,17,14,14,22,14,22,21,14,14,18,13,17,21,22,22,14,21,18,22,1,10,21,22,2,2,5,5,10,14,16,10,1,2,5,2,18,22,18,13,14,14,22,11,3,11,21,14,18,13,13,18,17,18,18,17,22,22,14,21,17,21,18,13,21,13,17,17,17,14,13,18,17,21,22,21,22,17,13,21,18,14,
14,18,14,17,23,24,20,22,13,18,13,17,21,13,22,13,18,14,22,22,18,14,2,6,2,21,6,1,16,10,6,5,1,2,2,10,5,9,22,13,14,22,22,13,22,11,7,11,13,18,22,13,14,21,21,14,14,13,22,17,15,22,21,17,21,22,18,21,13,21,17,18,13,13,17,14,18,14,13,14,22,21,14,14,
13,14,21,20,13,18,20,22,14,13,13,21,13,22,21,14,13,17,21,21,21,18,18,5,9,6,16,9,18,16,1,9,6,10,16,5,10,5,22,17,13,22,13,18,21,3,3,11,21,17,14,14,14,21,17,14,21,22,21,18,17,22,21,18,18,18,22,10,10,5,13,18,17,22,10,21,10,14,14,13,18,13,22,21,
22,14,22,14,20,19,24,17,18,18,18,21,13,13,21,22,14,14,17,17,13,14,17,5,6,6,2,2,5,16,2,2,9,10,1,10,9,14,21,22,17,18,17,22,18,3,3,7,18,13,22,18,17,18,17,13,17,17,13,22,18,18,14,14,13,14,2,22,9,9,5,14,13,22,1,1,2,1,13,13,14,17,14,14,
14,21,22,15,21,22,13,22,13,21,14,18,13,14,18,14,21,21,13,18,22,21,18,14,5,2,5,16,6,16,6,6,2,9,16,9,13,22,13,22,22,21,22,21,20,11,7,11,23,13,17,17,13,18,13,13,18,13,22,17,17,21,18,14,17,18,18,17,10,22,1,13,22,2,6,2,2,5,21,14,18,13,14,18,
17,13,18,14,17,17,22,21,14,18,22,17,14,21,14,17,13,21,22,17,17,14,21,22,14,6,16,22,10,17,5,16,5,5,21,14,22,13,17,18,17,17,17,24,24,7,7,11,20,22,13,18,22,14,18,14,21,13,17,21,17,21,22,22,18,22,2,14,16,9,9,14,14,16,16,9,6,1,13,13,14,22,13,13,
18,21,14,17,22,14,14,22,15,22,21,14,13,22,13,21,21,14,18,13,13,22,14,21,21,13,21,9,2,2,18,18,22,18,14,21,13,17,14,17,17,18,17,20,24,14,3,7,7,17,17,14,13,14,13,14,22,21,17,13,14,14,13,22,17,14,21,18,9,2,21,14,22,22,2,6,6,14,18,17,18,21,14,13,
14,22,13,22,17,13,22,14,13,17,13,13,13,18,17,18,18,17,21,22,14,18,21,13,17,22,13,14,13,14,18,22,17,21,21,13,14,22,18,13,13,22,17,17,17,18,11,7,3,21,13,17,14,18,17,13,21,18,14,18,17,14,14,18,22,15,17,14,17,14,13,18,14,21,22,13,22,13,14,17,14,17,13,18,
14,13,21,14,18,14,13,17,17,21,14,21,21,21,14,22,22,14,17,21,14,22,14,14,21,21,22,17,13,18,17,14,22,17,13,21,18,13,14,17,13,18,21,20,22,3,7,3,20,20,22,14,21,17,18,17,17,13,13,18,13,21,22,13,21,22,21,13,17,14,18,18,14,22,17,18,13,21,17,18,18,14,18,13,
22,21,17,14,18,18,18,17,21,13,21,21,21,13,21,13,17,13,14,18,22,13,18,22,22,17,14,18,17,14,22,21,17,18,22,18,14,14,13,17,14,18,21,23,14,13,11,11,7,21,15,14,18,14,14,21,17,17,14,13,13,18,21,2,2,16,10,1,18,22,13,18,13,17,22,22,17,13,22,14,18,22,14,13,
21,21,21,18,18,14,18,13,17,18,18,17,22,13,13,22,21,21,18,17,22,21,22,21,21,13,21,22,21,14,14,13,18,17,17,13,13,14,22,18,13,13,13,18,23,13,7,11,7,18,17,14,13,22,17,22,13,22,14,22,17,14,1,5,6,6,5,1,16,22,18,18,22,17,22,13,18,14,22,21,17,21,22,13,
22,22,18,13,22,21,14,21,17,18,13,21,18,22,21,2,2,6,2,22,6,2,21,13,14,13,13,22,17,22,17,18,17,22,13,21,21,22,17,13,22,14,14,13,13,22,3,3,3,22,14,13,14,22,21,13,14,13,21,13,22,17,16,2,5,14,18,2,6,6,13,18,18,21,13,18,22,18,18,17,13,17,14,17,
19,14,17,13,18,21,18,13,22,21,13,13,13,14,6,6,1,9,1,18,16,17,13,22,21,18,14,21,21,13,14,18,14,21,13,22,13,21,13,13,14,22,13,18,21,11,7,3,18,13,22,22,13,18,22,14,22,18,21,18,18,2,21,9,1,9,9,16,10,5,5,21,13,14,13,17,22,18,21,14,14,22,21,21,
22,23,21,15,18,22,14,18,17,22,14,14,14,16,16,6,17,2,5,6,1,13,13,14,21,22,17,21,21,14,17,22,18,13,18,18,13,22,14,17,18,17,13,14,13,11,3,7,18,13,13,17,21,14,21,18,18,21,21,13,22,18,14,16,6,6,10,9,6,2,10,17,17,21,14,16,16,5,2,10,21,13,22,13,
22,21,18,21,21,17,13,21,22,18,22,13,13,21,6,10,16,9,5,10,1,13,5,10,22,17,14,17,13,18,14,18,13,17,20,17,14,14,21,22,22,17,14,18,22,11,7,3,17,13,21,17,14,22,13,21,18,17,17,22,14,22,21,6,2,16,6,1,14,16,10,14,17,14,9,10,6,1,6,9,15,21,21,22,
20,14,14,22,22,22,13,22,22,14,14,13,18,9,6,16,6,6,9,2,2,17,22,2,14,14,17,13,22,21,13,14,17,14,14,22,14,17,18,13,18,17,14,14,22,11,7,7,18,14,14,21,17,21,22,17,13,13,22,17,2,6,14,10,16,6,13,16,17,6,16,14,14,1,2,2,2,21,2,9,10,1,18,14,
22,13,13,22,21,22,18,14,21,21,21,22,13,5,2,15,10,9,1,6,2,17,14,5,13,21,14,14,18,18,21,13,14,21,14,14,21,17,14,21,17,18,18,22,11,3,11,21,22,17,13,14,17,21,13,21,21,18,21,18,14,21,17,14,1,9,13,22,16,10,5,22,22,22,5,1,16,10,16,6,5,9,21,21,
22,13,14,17,18,18,14,13,13,14,18,22,22,16,21,2,16,16,10,16,2,21,13,10,13,13,13,18,22,17,14,21,17,13,13,20,17,13,13,22,13,17,17,13,3,11,11,21,14,13,18,13,17,13,22,13,18,17,14,18,21,10,21,16,6,10,2,5,16,17,17,13,17,6,16,14,1,14,2,1,9,10,21,21,
13,14,18,14,17,18,17,21,17,21,17,21,22,5,10,7,7,7,2,17,16,14,16,17,13,21,13,18,18,14,13,18,13,18,22,20,14,17,21,21,21,14,13,22,17,11,3,11,22,14,13,18,21,14,14,14,21,18,17,22,13,21,21,5,6,9,16,9,22,17,13,9,5,1,16,15,10,5,2,10,5,2,13,13,
22,17,21,18,22,17,13,21,14,18,18,22,7,11,11,11,3,11,7,11,3,11,14,13,18,18,22,14,14,21,21,14,18,22,21,14,13,18,14,13,21,18,17,14,13,18,3,11,3,18,18,22,17,18,13,3,3,22,21,21,2,22,21,5,16,10,9,10,5,21,10,7,3,7,7,3,11,1,10,22,6,17,14,17,
15,22,14,22,18,22,17,13,22,21,13,11,3,11,3,11,11,3,3,11,7,7,11,21,17,14,14,21,13,17,13,14,14,13,17,13,18,21,22,13,17,14,22,17,17,3,3,7,18,17,18,17,18,21,7,3,7,11,3,7,22,21,13,3,11,21,6,9,5,6,11,11,11,11,7,3,3,7,1,2,9,7,21,22,
21,21,18,21,7,11,14,22,17,7,3,3,7,3,7,1,2,14,7,7,7,11,11,3,22,22,11,13,14,13,17,18,14,17,22,18,18,14,17,7,3,11,3,13,13,7,11,7,7,11,3,7,7,7,11,11,11,7,7,3,3,7,7,3,11,11,7,11,5,11,11,3,7,11,3,3,7,3,3,3,11,3,7,21,
9,10,3,3,11,3,11,11,7,7,7,7,22,21,22,18,13,22,21,18,13,13,3,3,3,11,7,11,21,13,21,3,3,3,7,3,3,11,3,7,7,3,11,7,7,3,3,7,11,3,3,11,7,7,3,17,23,3,3,11,3,7,7,7,7,3,7,3,3,7,11,14,2,9,10,10,14,3,3,3,11,11,22,18,
1,3,11,3,7,11,7,3,11,7,7,17,13,21,21,22,22,21,14,21,22,22,18,11,11,7,7,7,11,7,11,11,11,3,11,3,3,11,7,3,11,11,7,11,3,3,11,7,7,11,11,11,11,7,14,19,22,22,13,18,7,11,3,10,5,3,3,7,7,11,6,21,10,5,21,22,14,21,3,11,3,18,17,21,
17,9,11,11,10,16,11,11,7,13,22,13,17,22,18,18,13,21,21,21,17,22,18,21,7,7,18,3,3,7,11,3,3,7,3,7,11,7,11,13,18,18,22,11,11,3,7,3,7,17,17,22,17,22,21,13,18,18,22,14,17,6,13,21,16,21,9,14,7,17,18,14,6,6,22,13,22,17,14,14,17,22,14,22,
9,2,6,2,6,10,14,14,14,13,14,17,17,21,13,22,13,14,22,17,14,14,17,22,14,18,21,17,3,7,7,22,13,17,13,13,22,14,21,13,18,14,14,14,14,17,11,7,11,21,18,13,17,18,17,22,21,14,22,14,17,22,16,9,17,9,16,17,21,17,18,22,21,21,14,21,22,18,17,13,18,18,14,14,
9,10,16,16,16,5,2,1,18,18,22,13,17,22,17,22,14,14,18,22,17,14,22,18,13,18,22,14,13,17,13,18,18,14,14,14,21,13,14,18,22,22,14,18,18,14,17,7,3,11,13,21,13,22,14,18,13,22,18,21,18,13,14,17,22,18,22,18,18,22,21,21,17,18,17,17,13,13,21,14,13,21,13,21,
5,1,6,10,16,5,10,16,16,13,14,17,21,13,17,17,17,14,14,22,17,18,14,22,21,9,17,21,17,13,22,13,14,21,13,13,17,14,22,14,18,22,13,22,17,18,18,14,3,7,7,13,21,14,13,18,13,17,13,14,18,13,22,18,22,18,17,21,13,22,17,22,21,22,18,21,22,18,21,18,21,17,14,14,
10,16,9,9,10,6,14,10,5,21,22,22,13,14,21,18,14,13,14,13,14,10,17,17,14,17,13,13,17,13,18,22,21,17,17,13,13,13,21,17,18,18,18,18,18,17,14,13,3,11,3,13,13,17,18,22,22,13,14,21,17,21,13,21,18,17,14,21,17,18,5,5,9,18,1,17,17,17,21,18,9,14,21,17,
2,5,6,10,5,5,2,9,6,17,21,22,17,22,22,22,21,21,13,13,18,17,17,5,21,22,22,18,17,18,14,18,22,22,21,14,14,22,22,13,13,17,17,22,14,14,14,17,3,3,3,21,14,17,21,13,18,18,22,18,18,13,21,22,21,21,18,17,14,13,1,16,1,16,2,14,13,18,16,1,9,10,17,13,
5,9,10,6,1,2,10,16,13,6,22,13,13,18,13,13,21,22,18,22,13,14,18,17,14,14,13,2,17,5,18,18,22,17,22,13,14,18,17,14,13,13,21,14,22,22,17,14,17,11,11,11,22,22,17,17,13,14,21,18,22,14,22,22,21,17,18,17,17,6,10,5,1,6,5,1,17,14,13,18,2,10,6,13,
10,9,2,16,13,5,9,9,5,2,18,21,21,14,13,13,21,17,22,13,22,18,22,16,13,22,18,22,14,6,21,13,14,14,22,13,13,14,14,13,21,21,20,19,13,21,21,22,18,7,11,11,18,14,17,17,17,14,22,22,18,18,21,22,21,17,18,14,14,17,6,10,5,5,10,13,22,5,16,2,17,21,5,9,
10,22,10,14,16,5,16,16,5,6,22,21,21,17,13,22,18,17,14,14,22,14,18,17,2,21,22,2,17,21,13,13,22,22,21,13,13,17,13,17,14,22,18,21,14,21,13,13,22,7,7,7,18,21,17,22,17,21,18,17,13,21,21,17,18,21,14,22,22,17,9,2,1,10,6,18,14,14,5,9,1,2,13,13,
10,1,5,9,16,10,2,1,16,21,17,13,17,21,22,21,14,22,21,14,21,14,10,17,22,22,14,22,17,14,18,18,17,22,22,21,13,18,22,14,14,19,22,18,18,18,18,17,18,11,11,7,22,21,17,17,17,18,14,22,14,13,14,21,17,22,17,21,13,14,21,14,14,17,17,22,13,22,6,2,9,6,9,13,
2,10,10,2,14,6,13,14,9,13,22,22,18,13,14,21,17,21,13,18,13,14,17,14,13,21,18,21,13,21,17,14,13,13,14,17,22,18,17,13,22,14,21,17,22,14,18,18,14,18,3,11,11,21,17,18,22,17,17,21,21,18,21,13,14,13,14,13,18,18,14,18,14,17,21,14,13,21,17,18,10,22,17,14,
10,1,1,22,6,5,10,16,10,22,18,18,17,18,17,17,18,18,14,21,22,18,14,14,22,18,22,17,13,14,13,22,17,13,21,21,21,17,17,22,13,21,22,22,21,17,22,22,22,17,11,7,3,17,14,13,21,14,14,21,17,14,18,17,21,18,22,18,22,18,18,21,17,13,18,18,14,21,22,17,18,22,14,21,
16,21,2,9,5,21,2,2,18,13,17,18,17,13,13,17,22,18,22,22,14,17,14,14,13,13,14,21,21,22,17,22,18,21,21,13,21,18,17,21,13,17,18,13,21,17,17,13,13,14,3,3,11,21,18,22,13,18,14,17,14,18,18,14,13,17,13,18,14,21,21,18,21,18,21,18,22,22,21,21,22,13,14,13,
17,1,1,1,6,17,17,22,13,22,21,21,13,21,21,18,22,22,22,17,22,14,21,18,13,13,14,14,13,17,13,13,14,18,17,17,13,22,17,21,22,18,13,22,22,17,14,18,21,14,7,11,11,21,22,13,21,18,13,21,22,18,13,18,17,14,21,21,18,14,22,13,18,14,17,22,18,22,21,14,21,17,14,18,
17,18,22,14,13,14,21,17,13,14,21,22,14,22,21,17,21,22,17,17,17,21,17,22,21,17,21,13,22,14,13,21,22,17,22,18,22,14,13,22,22,14,21,13,17,21,22,22,22,21,11,3,11,13,21,13,13,14,18,22,17,14,13,21,21,13,13,22,21,14,14,22,18,13,14,13,18,18,18,22,17,22,21,13,
13,22,18,13,14,22,13,13,17,21,21,17,18,14,17,18,18,13,14,21,14,18,22,18,13,22,13,14,14,17,13,21,17,18,21,22,22,17,18,18,21,13,14,18,17,17,22,14,17,18,3,11,7,21,21,21,21,17,21,14,14,14,22,17,17,17,21,17,17,18,22,13,14,18,14,21,17,18,14,17,13,13,18,18,
13,21,14,22,21,17,14,22,14,13,14,17,22,21,18,21,18,22,18,17,17,22,14,22,17,14,13,17,22,21,22,21,13,13,17,22,21,21,13,21,17,22,14,21,14,17,18,14,22,22,11,3,11,14,14,22,13,21,22,22,22,22,13,22,14,18,18,13,17,13,17,21,17,13,13,18,13,14,21,17,21,17,21,17,
14,21,13,17,17,21,13,17,22,18,22,14,17,18,18,13,13,17,17,14,22,14,14,13,17,17,17,22,14,21,21,17,13,17,22,18,17,21,13,18,13,21,18,18,21,14,14,21,21,17,11,11,11,17,18,13,22,21,22,14,13,21,13,22,22,13,14,17,14,21,21,18,13,21,14,17,17,21,17,17,17,18,21,18,
22,22,18,22,22,21,17,22,13,18,18,14,22,21,21,22,18,13,21,14,17,13,17,21,21,21,17,14,13,21,13,17,13,17,13,14,21,13,21,14,14,14,13,13,17,13,18,18,14,7,7,3,22,22,13,18,13,13,13,22,14,17,22,22,14,18,18,18,21,13,14,17,22,14,18,22,17,22,18,14,14,14,17,14,
18,18,21,13,22,21,21,18,13,22,22,17,21,18,14,13,17,14,21,18,14,13,13,13,21,22,21,14,13,22,18,21,13,22,14,21,17,17,21,22,21,17,21,21,13,14,13,21,22,7,7,11,14,14,14,13,21,21,17,14,22,17,21,13,17,17,13,13,18,13,14,21,15,18,13,18,22,17,21,17,22,13,22,18,
18,22,22,14,22,13,14,18,18,21,21,22,22,22,21,21,18,21,13,17,22,17,13,18,22,18,17,14,14,17,18,13,22,14,17,17,18,22,17,17,22,14,18,22,18,18,14,14,13,11,7,7,18,22,14,14,17,21,13,15,17,13,21,21,18,13,21,22,22,17,14,13,13,21,14,13,14,21,22,21,18,21,13,13,
13,18,18,21,17,14,21,13,21,18,22,13,21,21,22,13,21,18,14,21,17,24,13,14,18,21,17,21,21,18,14,22,18,18,17,22,14,20,24,24,22,21,21,22,22,18,18,21,13,7,11,3,22,22,18,21,22,17,21,14,13,17,18,22,21,14,18,18,22,14,13,13,22,21,13,17,18,17,14,21,22,22,13,17,
22,17,18,21,21,17,18,13,14,17,22,13,21,18,14,18,18,18,22,18,20,19,17,22,18,22,13,18,21,17,13,13,22,14,17,21,19,23,17,20,23,13,18,21,17,17,13,21,17,7,7,3,14,18,17,13,13,22,14,22,17,14,13,17,21,17,17,21,18,17,17,13,17,14,13,15,17,22,13,22,22,13,14,21,
14,17,22,21,13,14,17,22,18,18,17,22,13,22,14,18,21,17,18,21,24,20,20,24,20,13,22,21,13,13,22,13,14,14,13,17,23,14,22,21,24,22,13,21,22,14,22,22,13,11,11,7,18,17,17,17,14,18,21,21,13,13,13,21,17,18,17,17,17,14,13,21,21,14,18,17,21,18,18,21,18,18,17,17,
17,18,22,14,22,13,21,13,22,21,22,13,13,18,14,22,21,14,14,18,14,23,17,24,17,22,21,18,18,13,18,22,18,14,13,13,21,14,20,19,23,22,17,18,22,21,21,13,18,18,3,22,22,13,13,14,22,22,21,18,21,22,14,13,14,13,21,18,21,14,13,13,17,17,17,21,21,18,14,21,14,13,14,14,
14,17,17,17,18,21,14,18,18,17,17,18,22,14,17,13,18,18,13,14,23,22,19,21,24,19,17,21,13,21,14,21,14,18,17,13,21,19,18,19,13,17,17,22,21,21,13,13,22,14,14,21,22,21,13,14,21,21,18,14,13,18,13,18,21,21,22,21,22,13,13,14,22,22,13,17,14,21,14,18,21,21,18,13
</data>
 </layer>
 <layer id="2" name="decals" width="84" height="52">
  <data encoding="csv">
0,0,0,0,0,0,0,0,0,0,0,0,0,0,0,0,0,0,0,0,0,0,0,0,0,0,0,0,0,0,0,0,0,0,0,0,0,0,0,0,0,0,0,0,0,0,0,0,0,0,0,0,0,0,0,0,0,0,0,0,0,0,0,0,0,0,0,0,0,0,0,0,0,0,0,0,0,0,0,0,0,0,0,0,
0,0,0,0,0,0,0,0,0,0,0,0,0,0,0,0,0,0,0,0,0,0,0,0,0,0,0,0,0,0,0,0,0,0,0,0,0,0,0,0,0,0,0,0,0,0,0,0,0,0,0,0,0,0,0,0,0,0,0,0,0,0,0,0,0,0,0,0,0,0,0,0,0,0,0,0,0,0,0,0,0,0,0,0,
0,0,0,0,0,0,0,0,0,0,0,0,0,0,0,0,0,0,0,0,0,0,0,0,0,0,0,0,0,0,0,0,0,0,0,0,0,0,0,0,0,0,0,0,0,0,0,0,0,0,0,0,0,0,0,0,0,0,0,0,0,0,0,0,0,0,0,0,0,0,0,0,0,0,0,0,0,0,0,0,0,0,0,0,
0,0,0,0,0,0,0,0,0,0,0,0,0,0,0,0,0,0,0,0,0,0,0,0,0,0,0,0,0,0,0,0,0,0,0,0,0,0,0,0,0,0,0,0,0,0,0,0,0,0,0,0,0,0,0,0,0,0,0,0,0,0,0,0,0,0,0,0,0,0,0,0,0,0,0,0,0,0,0,0,0,0,0,0,
0,0,0,0,0,0,0,0,0,0,0,0,0,0,0,0,0,0,0,0,0,0,0,0,0,0,0,0,0,0,0,0,0,0,0,0,0,0,0,0,0,0,0,0,0,0,0,0,0,0,0,0,0,0,0,0,0,0,0,0,0,0,0,0,0,0,0,0,0,0,0,0,0,0,0,0,0,0,0,0,0,0,0,0,
0,0,0,0,0,0,0,0,0,0,0,0,0,0,0,0,0,0,0,0,0,0,0,0,0,0,0,0,0,0,0,0,0,0,0,0,0,0,0,0,0,0,0,0,0,0,0,0,0,0,0,0,0,0,0,0,0,0,0,0,0,0,0,0,0,0,0,0,0,0,0,0,0,0,0,0,0,0,0,0,0,0,0,0,
0,0,0,0,0,0,0,0,0,0,0,0,0,0,0,0,0,0,0,0,0,0,0,0,0,0,0,0,0,0,0,0,0,0,0,0,0,0,0,0,0,0,0,0,0,0,0,0,0,0,0,0,0,0,0,0,0,0,0,0,0,0,0,0,0,0,0,0,0,0,0,0,0,0,0,0,0,0,0,0,0,0,0,0,
0,0,0,0,0,0,0,0,0,0,0,0,0,0,0,0,0,0,0,0,0,0,0,0,0,0,0,0,0,0,0,0,0,0,0,0,0,0,0,0,0,0,0,0,0,0,0,0,0,0,0,0,0,0,0,0,0,0,0,0,0,0,0,0,0,0,0,0,0,0,0,0,0,0,0,0,0,0,0,0,0,0,0,0,
0,0,0,0,0,0,0,0,0,0,0,0,0,0,0,0,0,0,0,0,0,0,0,0,0,0,0,0,0,0,0,0,0,0,0,0,0,0,0,0,0,0,0,0,0,0,0,0,105,0,0,0,0,0,0,0,0,0,0,0,0,0,0,0,0,0,0,0,0,0,0,0,0,0,0,0,0,0,0,0,0,0,0,0,
0,0,0,0,0,0,0,0,0,0,0,0,0,0,0,0,0,0,0,0,0,0,0,0,0,0,0,0,0,0,0,0,0,0,0,0,0,0,0,0,0,0,0,0,0,0,0,99,0,104,0,0,0,0,0,0,0,0,0,0,0,0,0,0,0,0,0,0,0,0,0,0,0,0,0,0,0,0,0,0,0,0,0,0,
0,0,0,0,0,0,0,0,0,0,0,0,0,0,0,0,0,0,0,0,0,0,0,0,0,0,0,0,0,0,0,0,0,0,0,0,0,0,0,0,0,0,0,0,0,0,0,0,104,98,105,0,0,0,0,0,0,0,0,0,0,0,0,0,0,0,0,0,0,0,0,0,0,0,0,0,0,0,0,0,0,0,0,0,
0,0,0,0,0,0,0,0,0,0,0,0,0,0,0,0,0,0,0,0,0,0,0,0,0,0,0,0,0,0,0,0,0,0,0,0,0,0,0,0,0,0,0,0,0,0,0,0,92,92,93,0,0,0,0,0,0,0,0,0,0,0,0,0,0,0,0,0,0,0,0,0,0,0,0,0,0,0,0,0,0,0,0,0,
0,0,0,0,0,0,0,0,0,0,0,0,0,0,0,0,0,0,0,0,0,0,0,0,0,0,0,0,0,0,0,0,0,0,0,0,0,0,0,0,0,0,0,0,0,0,0,0,98,104,98,0,0,0,0,0,0,0,0,0,0,0,0,0,0,0,0,0,0,0,0,0,0,0,0,0,0,0,0,0,0,0,0,0,
0,0,0,0,0,0,0,0,0,0,0,0,0,0,0,0,0,0,0,0,0,0,0,0,0,0,0,0,0,0,0,0,0,0,0,0,0,0,0,0,0,0,0,0,0,0,0,0,98,0,93,0,0,0,0,0,0,0,0,0,0,0,0,0,0,0,0,0,0,0,0,0,0,0,0,0,0,0,0,0,0,0,0,0,
0,0,0,0,0,0,0,0,0,0,0,0,0,0,0,0,0,0,0,0,0,0,0,0,0,0,0,0,0,0,0,0,0,0,0,0,0,0,0,0,0,0,0,0,0,0,0,93,105,105,0,0,0,0,0,0,0,0,0,0,0,0,0,0,0,0,0,0,0,0,0,0,0,0,0,0,0,0,0,0,0,0,0,0,
0,0,0,0,0,0,0,0,0,0,0,0,0,0,0,0,0,0,0,0,0,0,0,0,0,0,0,0,0,0,0,0,0,0,0,0,0,0,0,0,0,0,0,0,0,0,0,93,0,93,0,0,0,0,0,0,0,0,0,0,0,0,0,0,0,0,0,0,0,0,0,0,0,0,0,0,0,0,0,0,0,0,0,0,
0,0,0,0,0,0,0,0,0,0,0,0,0,0,0,0,0,0,0,0,0,0,0,0,0,0,0,0,0,0,0,0,0,0,0,0,0,0,0,0,0,0,0,0,0,0,0,105,92,99,99,0,0,0,0,0,0,0,0,0,0,0,0,0,0,0,0,0,0,0,0,0,0,0,0,0,0,0,0,0,0,0,0,0,
0,0,0,0,0,0,0,0,0,0,0,0,0,0,0,0,0,0,0,0,0,0,0,0,0,0,0,0,0,0,0,0,0,0,0,0,0,0,0,0,0,0,0,0,0,0,104,104,92,92,0,0,0,0,0,0,0,0,0,0,0,0,0,0,0,0,0,0,0,0,0,0,0,0,0,0,0,0,0,0,0,0,0,0,
0,0,0,0,0,0,0,0,0,0,0,0,0,0,0,0,0,0,0,0,0,0,0,0,0,0,0,0,0,0,0,0,0,0,0,0,0,0,0,0,0,0,0,0,0,0,92,99,99,93,0,0,0,0,0,0,0,0,0,0,0,0,0,0,0,0,0,0,0,0,0,0,0,0,0,0,0,0,0,0,0,0,0,0,
0,0,0,0,0,0,0,0,0,0,0,0,0,0,0,0,104,99,92,99,0,98,98,0,0,0,0,0,0,0,0,0,0,0,0,0,0,0,0,0,0,0,0,0,0,99,93,105,105,0,0,0,0,0,0,0,0,0,0,0,0,0,0,0,0,0,0,0,0,0,0,0,0,0,0,0,0,0,0,0,0,0,0,0,
0,0,0,0,0,0,0,0,0,0,0,0,0,0,0,99,99,104,92,104,105,93,92,104,0,0,0,0,0,0,0,0,0,0,0,0,0,0,0,0,0,0,0,0,0,0,92,92,99,93,0,93,0,0,92,99,0,0,0,0,0,0,0,0,0,0,0,0,0,0,0,0,0,0,0,0,0,0,0,0,0,0,0,0,
0,0,0,0,0,0,0,0,0,0,0,0,0,0,0,0,99,105,98,99,105,99,99,99,105,0,0,0,0,0,0,0,0,0,0,0,0,0,0,0,0,92,0,0,0,99,92,0,104,98,105,105,99,98,104,105,92,0,0,0,0,0,0,0,0,0,0,0,0,0,0,0,0,0,0,0,0,0,0,0,0,0,0,0,
0,0,0,0,0,0,0,0,0,0,0,0,0,0,0,0,0,0,0,105,99,98,0,104,0,0,105,0,0,0,0,0,0,0,0,104,0,0,0,0,105,93,105,92,99,105,92,93,92,104,98,105,93,104,92,105,0,0,0,0,0,0,0,0,0,0,0,0,0,0,0,0,0,0,0,0,0,0,0,0,0,0,0,0,
0,0,0,0,0,0,0,0,0,0,0,0,0,0,0,0,0,0,0,0,98,0,0,0,0,93,104,99,98,0,0,99,104,0,92,104,92,0,0,92,92,98,93,105,92,98,92,98,104,92,93,0,99,92,105,0,0,0,0,0,0,0,0,0,0,0,0,0,0,0,0,0,0,0,0,0,0,0,0,0,0,0,0,0,
0,0,0,0,0,0,0,98,0,0,105,98,0,0,0,0,0,0,0,0,0,0,0,0,0,0,105,99,93,104,92,93,0,93,93,104,98,92,93,92,99,104,98,105,92,104,93,0,99,92,92,93,0,99,0,0,0,0,0,0,0,0,0,0,0,0,0,0,0,0,0,0,0,0,0,0,0,0,0,0,0,0,0,0,
0,0,0,0,0,0,105,0,99,92,92,98,98,0,105,0,0,0,0,0,0,0,0,0,0,0,92,93,92,92,0,98,105,93,105,0,93,0,0,92,92,105,99,98,104,92,99,99,105,99,104,0,0,0,0,0,0,0,0,0,0,0,0,0,0,0,0,0,0,0,0,0,0,0,0,0,0,0,0,0,0,0,0,0,
0,0,0,0,0,0,0,105,99,105,93,104,99,104,0,104,0,0,0,0,0,0,0,0,0,0,0,98,0,99,98,0,0,98,0,0,0,0,0,0,0,98,0,0,0,104,0,93,99,98,0,0,0,0,0,0,0,0,0,0,0,0,0,0,0,0,0,0,0,0,0,0,0,0,0,0,0,0,0,0,0,0,0,0,
0,0,0,0,0,0,0,0,93,104,99,92,99,104,92,0,0,0,0,0,0,0,0,0,0,0,0,0,0,0,0,0,0,0,0,0,0,0,0,0,0,0,0,0,0,0,104,92,104,92,104,0,0,0,0,0,0,0,0,0,0,0,0,0,0,0,0,0,0,0,0,0,0,0,0,0,0,0,0,0,0,0,0,0,
0,0,0,0,0,0,0,0,0,93,0,0,99,104,0,0,0,0,0,0,0,0,0,0,0,0,0,0,0,0,0,0,0,0,0,0,0,0,0,0,0,0,0,0,0,0,92,92,104,92,105,0,0,0,0,0,0,0,0,0,0,0,0,0,0,0,0,0,0,0,0,0,0,0,0,0,0,0,0,0,0,0,0,0,
0,0,0,0,0,0,0,0,0,0,0,0,0,0,0,0,0,0,0,0,0,0,0,0,0,0,0,0,0,0,0,0,0,0,0,0,0,0,0,0,0,0,0,0,0,104,99,99,92,105,0,0,0,0,0,0,0,0,0,0,0,0,0,0,0,0,0,0,0,0,0,0,0,0,0,0,0,0,0,0,0,0,0,0,
0,0,0,0,0,0,0,0,0,0,0,0,0,0,0,0,0,0,0,0,0,0,0,0,0,0,0,0,0,0,0,0,0,0,0,0,0,0,0,0,0,0,0,0,0,0,99,92,99,0,0,0,0,0,0,0,0,0,0,0,0,0,0,0,0,0,0,0,0,0,0,0,0,0,0,0,0,0,0,0,0,0,0,0,
0,0,0,0,0,0,0,0,0,0,0,0,0,0,0,0,0,0,0,0,0,0,0,0,0,0,0,0,0,0,0,0,0,0,0,0,0,0,0,0,0,0,0,0,0,0,0,99,92,99,0,0,0,0,0,0,0,0,0,0,0,0,0,0,0,0,0,0,0,0,0,0,0,0,0,0,0,0,0,0,0,0,0,0,
0,0,0,0,0,0,0,0,0,0,0,0,0,0,0,0,0,0,0,0,0,0,0,0,0,0,0,0,0,0,0,0,0,0,0,0,0,0,0,0,0,0,0,0,0,0,0,104,99,93,0,0,0,0,0,0,0,0,0,0,0,0,0,0,0,0,0,0,0,0,0,0,0,0,0,0,0,0,0,0,0,0,0,0,
0,0,0,0,0,0,0,0,0,0,0,0,0,0,0,0,0,0,0,0,0,0,0,0,0,0,0,0,0,0,0,0,0,0,0,0,0,0,0,0,0,0,0,0,0,0,0,104,98,105,0,0,0,0,0,0,0,0,0,0,0,0,0,0,0,0,0,0,0,0,0,0,0,0,0,0,0,0,0,0,0,0,0,0,
0,0,0,0,0,0,0,0,0,0,0,0,0,0,0,0,0,0,0,0,0,0,0,0,0,0,0,0,0,0,0,0,0,0,0,0,0,0,0,0,0,0,0,0,0,0,105,98,93,0,0,0,0,0,0,0,0,0,0,0,0,0,0,0,0,0,0,0,0,0,0,0,0,0,0,0,0,0,0,0,0,0,0,0,
0,0,0,0,0,0,0,0,0,0,0,0,0,0,0,0,0,0,0,0,0,0,0,0,0,0,0,0,0,0,0,0,0,0,0,0,0,0,0,0,0,0,0,0,0,0,93,104,98,0,0,0,0,0,0,0,0,0,0,0,0,0,0,0,0,0,0,0,0,0,0,0,0,0,0,0,0,0,0,0,0,0,0,0,
0,0,0,0,0,0,0,0,0,0,0,0,0,0,0,0,0,0,0,0,0,0,0,0,0,0,0,0,0,0,0,0,0,0,0,0,0,0,0,0,0,0,0,0,0,0,0,92,0,104,0,0,0,0,0,0,0,0,0,0,0,0,0,0,0,0,0,0,0,0,0,0,0,0,0,0,0,0,0,0,0,0,0,0,
0,0,0,0,0,0,0,0,0,0,0,0,0,0,0,0,0,0,0,0,0,0,0,0,0,0,0,0,0,0,0,0,0,0,0,0,0,0,0,0,0,0,0,0,0,0,0,0,99,93,93,0,0,0,0,0,0,0,0,0,0,0,0,0,0,0,0,0,0,0,0,0,0,0,0,0,0,0,0,0,0,0,0,0,
0,0,0,0,0,0,0,0,0,0,0,0,0,0,0,0,0,0,0,0,0,0,0,0,0,0,0,0,0,0,0,0,0,0,0,0,0,0,0,0,0,0,0,0,0,0,0,0,99,92,93,0,0,0,0,0,0,0,0,0,0,0,0,0,0,0,0,0,0,0,0,0,0,0,0,0,0,0,0,0,0,0,0,0,
0,0,0,0,0,0,0,0,0,0,0,0,0,0,0,0,0,0,0,0,0,0,0,0,0,0,0,0,0,0,0,0,0,0,0,0,0,0,0,0,0,0,0,0,0,0,0,0,92,104,93,0,0,0,0,0,0,0,0,0,0,0,0,0,0,0,0,0,0,0,0,0,0,0,0,0,0,0,0,0,0,0,0,0,
0,0,0,0,0,0,0,0,0,0,0,0,0,0,0,0,0,0,0,0,0,0,0,0,0,0,0,0,0,0,0,0,0,0,0,0,0,0,0,0,0,0,0,0,0,0,0,99,104,0,104,0,0,0,0,0,0,0,0,0,0,0,0,0,0,0,0,0,0,0,0,0,0,0,0,0,0,0,0,0,0,0,0,0,
0,0,0,0,0,0,0,0,0,0,0,0,0,0,0,0,0,0,0,0,0,0,0,0,0,0,0,0,0,0,0,0,0,0,0,0,0,0,0,0,0,0,0,0,0,0,93,105,93,92,0,0,0,0,0,0,0,0,0,0,0,0,0,0,0,0,0,0,0,0,0,0,0,0,0,0,0,0,0,0,0,0,0,0,
0,0,0,0,0,0,0,0,0,0,0,0,0,0,0,0,0,0,0,0,0,0,0,0,0,0,0,0,0,0,0,0,0,0,0,0,0,0,0,0,0,0,0,0,0,0,0,93,93,93,0,0,0,0,0,0,0,0,0,0,0,0,0,0,0,0,0,0,0,0,0,0,0,0,0,0,0,0,0,0,0,0,0,0,
0,0,0,0,0,0,0,0,0,0,0,0,0,0,0,0,0,0,0,0,0,0,0,0,0,0,0,0,0,0,0,0,0,0,0,0,0,0,0,0,0,0,0,0,0,0,0,99,99,93,0,0,0,0,0,0,0,0,0,0,0,0,0,0,0,0,0,0,0,0,0,0,0,0,0,0,0,0,0,0,0,0,0,0,
0,0,0,0,0,0,0,0,0,0,0,0,0,0,0,0,0,0,0,0,0,0,0,0,0,0,0,0,0,0,0,0,0,0,0,0,0,0,0,0,0,0,0,0,0,0,0,0,99,104,104,0,0,0,0,0,0,0,0,0,0,0,0,0,0,0,0,0,0,0,0,0,0,0,0,0,0,0,0,0,0,0,0,0,
0,0,0,0,0,0,0,0,0,0,0,0,0,0,0,0,0,0,0,0,0,0,0,0,0,0,0,0,0,0,0,0,0,0,0,0,0,0,0,0,0,0,0,0,0,0,0,0,0,98,0,0,0,0,0,0,0,0,0,0,0,0,0,0,0,0,0,0,0,0,0,0,0,0,0,0,0,0,0,0,0,0,0,0,
0,0,0,0,0,0,0,0,0,0,0,0,0,0,0,0,0,0,0,0,0,0,0,0,0,0,0,0,0,0,0,0,0,0,0,0,0,0,0,0,0,0,0,0,0,0,0,0,0,0,0,0,0,0,0,0,0,0,0,0,0,0,0,0,0,0,0,0,0,0,0,0,0,0,0,0,0,0,0,0,0,0,0,0,
0,0,0,0,0,0,0,0,0,0,0,0,0,0,0,0,0,0,0,0,0,0,0,0,0,0,0,0,0,0,0,0,0,0,0,0,0,0,0,0,0,0,0,0,0,0,0,0,0,0,0,0,0,0,0,0,0,0,0,0,0,0,0,0,0,0,0,0,0,0,0,0,0,0,0,0,0,0,0,0,0,0,0,0,
0,0,0,0,0,0,0,0,0,0,0,0,0,0,0,0,0,0,0,0,0,0,0,0,0,0,0,0,0,0,0,0,0,0,0,0,0,0,0,0,0,0,0,0,0,0,0,0,0,0,0,0,0,0,0,0,0,0,0,0,0,0,0,0,0,0,0,0,0,0,0,0,0,0,0,0,0,0,0,0,0,0,0,0,
0,0,0,0,0,0,0,0,0,0,0,0,0,0,0,0,0,0,0,0,0,0,0,0,0,0,0,0,0,0,0,0,0,0,0,0,0,0,0,0,0,0,0,0,0,0,0,0,0,0,0,0,0,0,0,0,0,0,0,0,0,0,0,0,0,0,0,0,0,0,0,0,0,0,0,0,0,0,0,0,0,0,0,0,
0,0,0,0,0,0,0,0,0,0,0,0,0,0,0,0,0,0,0,0,0,0,0,0,0,0,0,0,0,0,0,0,0,0,0,0,0,0,0,0,0,0,0,0,0,0,0,0,0,0,0,0,0,0,0,0,0,0,0,0,0,0,0,0,0,0,0,0,0,0,0,0,0,0,0,0,0,0,0,0,0,0,0,0,
0,0,0,0,0,0,0,0,0,0,0,0,0,0,0,0,0,0,0,0,0,0,0,0,0,0,0,0,0,0,0,0,0,0,0,0,0,0,0,0,0,0,0,0,0,0,0,0,0,0,0,0,0,0,0,0,0,0,0,0,0,0,0,0,0,0,0,0,0,0,0,0,0,0,0,0,0,0,0,0,0,0,0,0
</data>
 </layer>
 <layer id="5" name="walls" width="84" height="52">
  <data encoding="csv">
35,35,35,35,35,35,35,35,35,35,35,35,35,35,35,35,35,35,35,35,35,35,35,35,35,35,35,35,35,35,35,35,35,35,35,35,35,35,35,35,35,35,35,35,35,35,35,35,35,35,35,35,35,35,35,35,35,35,35,35,35,35,35,35,35,35,35,35,35,35,35,35,35,35,35,35,35,35,35,35,35,35,35,35,
44,0,0,0,0,0,0,0,0,0,0,0,0,0,0,0,0,0,0,0,0,0,0,0,0,0,0,0,0,0,0,0,0,0,0,0,0,0,0,0,0,0,0,0,0,0,0,0,0,0,0,0,0,0,0,0,0,0,0,0,0,0,0,0,0,0,0,0,0,0,0,0,0,0,0,0,0,0,0,0,0,0,0,45,
44,0,0,0,0,0,0,0,0,0,0,0,0,0,0,0,0,0,0,0,0,0,0,0,0,0,0,0,0,0,0,0,0,0,0,0,0,0,0,0,0,0,0,0,0,0,0,0,0,0,0,0,0,0,0,0,0,0,0,0,0,0,0,0,0,0,0,0,0,0,0,0,0,0,0,0,0,0,0,0,0,0,0,45,
44,0,0,0,0,0,0,0,0,0,0,0,0,0,0,0,0,0,0,0,0,0,0,0,0,0,0,0,0,0,0,0,0,0,0,0,0,0,0,0,0,0,0,0,0,0,0,0,0,0,0,0,0,0,0,0,0,0,0,0,0,0,0,0,0,0,0,0,0,0,0,0,0,0,0,0,0,0,0,0,0,0,0,45,
44,0,0,0,0,0,0,0,0,0,0,0,0,0,0,0,0,0,0,0,0,0,0,0,0,0,0,0,0,0,0,0,0,0,0,0,0,0,0,0,0,0,0,0,0,0,0,0,0,0,0,0,0,0,0,0,0,0,0,0,0,0,0,0,0,0,0,0,0,0,0,0,0,0,0,0,0,0,0,0,0,0,0,45,
44,0,0,0,0,0,0,0,0,0,0,0,0,0,0,0,0,0,0,0,0,0,0,0,0,0,0,0,0,0,0,0,0,0,0,0,0,0,0,0,0,0,0,0,0,0,0,0,0,0,0,0,0,0,0,0,0,0,0,0,0,0,0,0,0,0,0,0,0,0,0,0,0,0,0,0,0,0,0,0,0,0,0,45,
44,0,0,0,0,0,0,0,0,0,0,0,0,0,0,0,0,0,0,0,0,0,0,0,0,0,0,0,0,0,0,0,0,0,0,0,0,0,0,0,0,0,0,0,0,0,0,0,0,0,0,0,0,0,0,0,0,0,0,0,0,0,0,0,0,0,0,0,0,0,0,0,0,0,0,0,0,0,0,0,0,0,0,45,
44,0,0,0,0,0,0,0,0,0,0,0,0,0,0,0,0,0,0,0,0,0,0,0,0,0,0,0,0,0,0,0,0,0,0,0,0,0,0,0,0,0,0,0,0,0,0,0,0,0,0,0,0,0,0,0,0,0,0,0,0,0,0,0,0,0,0,0,0,0,0,0,0,0,0,0,0,0,0,0,0,0,0,45,
44,0,0,0,0,0,0,0,0,0,0,0,0,0,0,0,0,0,0,0,0,0,0,0,0,0,0,0,0,0,0,0,0,0,0,0,0,0,0,0,0,0,0,0,0,0,0,0,0,0,0,0,0,0,0,0,0,0,0,0,0,0,0,0,0,0,0,0,0,0,0,0,0,0,0,0,0,0,0,0,0,0,0,45,
44,0,0,0,0,0,0,0,0,0,0,0,0,0,0,0,0,0,0,0,0,0,0,0,0,0,0,0,0,0,0,0,0,0,0,0,0,0,0,0,0,0,0,0,0,0,0,0,0,0,0,0,0,0,0,0,0,0,0,0,0,0,0,0,0,0,0,0,0,0,0,0,0,0,0,0,0,0,0,0,0,0,0,45,
44,0,0,0,0,0,0,0,0,0,0,0,0,0,0,0,0,0,0,0,0,0,0,0,0,0,0,0,0,0,0,0,0,0,0,0,0,0,0,0,0,0,0,0,0,0,0,0,0,0,0,0,0,0,0,0,0,0,0,0,0,0,0,0,0,0,0,0,0,0,0,0,0,0,0,0,0,0,0,0,0,0,0,45,
44,0,0,0,0,0,0,0,0,0,0,0,0,0,0,0,0,0,0,0,0,0,0,0,0,0,0,0,0,0,0,0,0,0,0,0,0,0,0,0,0,0,0,0,0,0,0,0,0,0,0,0,0,0,0,0,0,0,0,0,0,0,0,0,0,0,0,0,0,0,0,0,0,0,0,0,0,0,0,0,0,0,0,45,
44,0,0,0,0,0,0,0,0,0,0,0,0,0,0,0,0,0,0,0,0,0,0,0,0,0,0,0,0,0,0,0,0,0,0,0,0,0,0,0,0,0,0,0,0,0,0,0,0,0,0,0,0,0,0,0,0,0,0,0,0,0,0,0,0,0,0,0,0,0,0,0,0,0,0,0,0,0,0,0,0,0,0,45,
44,0,0,0,0,0,0,0,0,0,0,0,0,0,0,0,0,0,0,0,0,0,0,0,0,0,0,0,0,0,0,0,0,0,0,0,0,0,0,0,0,0,0,0,0,0,0,0,0,0,0,0,0,0,0,0,0,0,0,0,0,0,0,0,0,0,0,0,0,0,0,0,0,0,0,0,0,0,0,0,0,0,0,45,
44,0,0,0,0,0,0,0,0,0,0,0,0,0,0,0,0,0,0,0,0,0,0,0,0,0,0,0,0,0,0,0,0,0,0,0,0,0,0,0,0,0,0,0,0,0,0,0,0,0,0,0,0,0,0,0,0,0,0,0,0,0,0,0,0,0,0,0,0,0,0,0,0,0,0,0,0,0,0,0,0,0,0,45,
44,0,0,0,0,0,0,0,0,0,0,0,0,0,0,0,0,0,0,0,0,0,0,0,0,0,0,0,0,0,0,0,0,0,0,0,0,0,0,0,0,0,0,0,0,0,0,0,0,0,0,0,0,0,0,0,0,0,0,0,0,0,0,0,0,0,0,0,0,0,0,0,0,0,0,0,0,0,0,0,0,0,0,45,
44,0,0,0,0,0,0,0,0,0,0,0,0,0,0,0,0,0,0,0,0,0,0,0,0,0,0,0,0,0,0,0,0,0,0,0,0,0,0,0,0,0,0,0,0,0,0,0,0,0,0,0,0,0,0,0,0,0,0,0,0,0,0,0,0,0,0,0,0,0,0,0,0,0,0,0,0,0,0,0,0,0,0,45,
44,0,0,0,0,0,0,0,0,0,0,0,0,0,0,0,0,0,0,0,0,0,0,0,0,0,0,0,0,0,0,0,0,0,0,0,0,0,0,0,0,0,0,0,0,0,0,0,0,0,0,0,0,0,0,0,0,0,0,0,0,0,0,0,0,0,0,0,0,0,0,0,0,0,0,0,0,0,0,0,0,0,0,45,
44,0,0,0,0,0,0,0,0,0,0,0,0,0,0,0,0,0,0,0,0,0,0,0,0,0,0,0,0,0,0,0,0,0,0,0,0,0,0,0,0,0,0,0,0,0,0,0,0,0,0,0,0,0,0,0,0,0,0,0,0,0,0,0,0,0,0,0,0,0,0,0,0,0,0,0,0,0,0,0,0,0,0,45,
44,0,0,0,0,0,0,0,0,0,0,0,0,0,0,0,0,0,0,0,0,0,0,0,0,0,0,0,0,0,0,0,0,0,0,0,0,0,0,0,0,0,0,0,0,0,0,0,0,0,0,0,0,0,0,0,0,0,0,0,0,0,0,0,0,0,0,0,0,0,0,0,0,0,0,0,0,0,0,0,0,0,0,45,
44,0,0,0,0,0,0,0,0,0,0,0,0,0,0,0,0,0,0,0,0,0,0,0,0,0,0,0,0,0,0,0,0,0,0,0,0,0,0,0,0,0,0,0,0,0,0,0,0,0,0,0,0,0,0,0,0,0,0,0,0,0,0,0,0,0,0,0,0,0,0,0,0,0,0,0,0,0,0,0,0,0,0,45,
44,0,0,0,0,0,0,0,0,0,0,0,0,0,0,0,0,0,0,0,0,0,0,0,0,0,0,0,0,0,0,0,0,0,0,0,0,0,0,0,0,0,0,0,0,0,0,0,0,0,0,0,0,0,0,0,0,0,0,0,0,0,0,0,0,0,0,0,0,0,0,0,0,0,0,0,0,0,0,0,0,0,0,45,
44,0,0,0,0,0,0,0,0,0,0,0,0,0,0,0,0,0,0,0,0,0,0,0,0,0,0,0,0,0,0,0,0,0,0,0,0,0,0,0,0,0,0,0,0,0,0,0,0,0,0,0,0,0,0,0,0,0,0,0,0,0,0,0,0,0,0,0,0,0,0,0,0,0,0,0,0,0,0,0,0,0,0,45,
44,0,0,0,0,0,0,0,0,0,0,0,0,0,0,0,0,0,0,0,0,0,0,0,0,0,0,0,0,0,0,0,0,0,0,0,0,0,0,0,0,0,0,0,0,0,0,0,0,0,0,0,0,0,0,0,0,0,0,0,0,0,0,0,0,0,0,0,0,0,0,0,0,0,0,0,0,0,0,0,0,0,0,45,
44,0,0,0,0,0,0,0,0,0,0,0,0,0,0,0,0,0,0,0,0,0,0,0,0,0,0,0,0,0,0,0,0,0,0,0,0,0,0,0,0,0,0,0,0,0,0,0,0,0,0,0,0,0,0,0,0,0,0,0,0,0,0,0,0,0,0,0,0,0,0,0,0,0,0,0,0,0,0,0,0,0,0,45,
44,0,0,0,0,0,0,0,0,0,0,0,0,0,0,0,0,0,0,0,0,0,0,0,0,0,0,0,0,0,0,0,0,0,0,0,0,0,0,0,0,0,0,0,0,0,0,0,0,0,0,0,0,0,0,0,0,0,0,0,0,0,0,0,0,0,0,0,0,0,0,0,0,0,0,0,0,0,0,0,0,0,0,45,
44,0,0,0,0,0,0,0,0,0,0,0,0,0,0,0,0,0,0,0,0,0,0,0,0,0,0,0,0,0,0,0,0,0,0,0,0,0,0,0,0,0,0,0,0,0,0,0,0,0,0,0,0,0,0,0,0,0,0,0,0,0,0,0,0,0,0,0,0,0,0,0,0,0,0,0,0,0,0,0,0,0,0,45,
44,0,0,0,0,0,0,0,0,0,0,0,0,0,0,0,0,0,0,0,0,0,0,0,0,0,0,0,0,0,0,0,0,0,0,0,0,0,0,0,0,0,0,0,0,0,0,0,0,0,0,0,0,0,0,0,0,0,0,0,0,0,0,0,0,0,0,0,0,0,0,0,0,0,0,0,0,0,0,0,0,0,0,45,
44,0,0,0,0,0,0,0,0,0,0,0,0,0,0,0,0,0,0,0,0,0,0,0,0,0,0,0,0,0,0,0,0,0,0,0,0,0,0,0,0,0,0,0,0,0,0,0,0,0,0,0,0,0,0,0,0,0,0,0,0,0,0,0,0,0,0,0,0,0,0,0,0,0,0,0,0,0,0,0,0,0,0,45,
44,0,0,0,0,0,0,0,0,0,0,0,0,0,0,0,0,0,0,0,0,0,0,0,0,0,0,0,0,0,0,0,0,0,0,0,0,0,0,0,0,0,0,0,0,0,0,0,0,0,0,0,0,0,0,0,0,0,0,0,0,0,0,0,0,0,0,0,0,0,0,0,0,0,0,0,0,0,0,0,0,0,0,45,
44,0,0,0,0,0,0,0,0,0,0,0,0,0,0,0,0,0,0,0,0,0,0,0,0,0,0,0,0,0,0,0,0,0,0,0,0,0,0,0,0,0,0,0,0,0,0,0,0,0,0,0,0,0,0,0,0,0,0,0,0,0,0,0,0,0,0,0,0,0,0,0,0,0,0,0,0,0,0,0,0,0,0,45,
44,0,0,0,0,0,0,0,0,0,0,0,0,0,0,0,0,0,0,0,0,0,0,0,0,0,0,0,0,0,0,0,0,0,0,0,0,0,0,0,0,0,0,0,0,0,0,0,0,0,0,0,0,0,0,0,0,0,0,0,0,0,0,0,0,0,0,0,0,0,0,0,0,0,0,0,0,0,0,0,0,0,0,45,
44,0,0,0,0,0,0,0,0,0,0,0,0,0,0,0,0,0,0,0,0,0,0,0,0,0,0,0,0,0,0,0,0,0,0,0,0,0,0,0,0,0,0,0,0,0,0,0,0,0,0,0,0,0,0,0,0,0,0,0,0,0,0,0,0,0,0,0,0,0,0,0,0,0,0,0,0,0,0,0,0,0,0,45,
44,0,0,0,0,0,0,0,0,0,0,0,0,0,0,0,0,0,0,0,0,0,0,0,0,0,0,0,0,0,0,0,0,0,0,0,0,0,0,0,0,0,0,0,0,0,0,0,0,0,0,0,0,0,0,0,0,0,0,0,0,0,0,0,0,0,0,0,0,0,0,0,0,0,0,0,0,0,0,0,0,0,0,45,
44,0,0,0,0,0,0,0,0,0,0,0,0,0,0,0,0,0,0,0,0,0,0,0,0,0,0,0,0,0,0,0,0,0,0,0,0,0,0,0,0,0,0,0,0,0,0,0,0,0,0,0,0,0,0,0,0,0,0,0,0,0,0,0,0,0,0,0,0,0,0,0,0,0,0,0,0,0,0,0,0,0,0,45,
44,0,0,0,0,0,0,0,0,0,0,0,0,0,0,0,0,0,0,0,0,0,0,0,0,0,0,0,0,0,0,0,0,0,0,0,0,0,0,0,0,0,0,0,0,0,0,0,0,0,0,0,0,0,0,0,0,0,0,0,0,0,0,0,0,0,0,0,0,0,0,0,0,0,0,0,0,0,0,0,0,0,0,45,
44,0,0,0,0,0,0,0,0,0,0,0,0,0,0,0,0,0,0,0,0,0,0,0,0,0,0,0,0,0,0,0,0,0,0,0,0,0,0,0,0,0,0,0,0,0,0,0,0,0,0,0,0,0,0,0,0,0,0,0,0,0,0,0,0,0,0,0,0,0,0,0,0,0,0,0,0,0,0,0,0,0,0,45,
44,0,0,0,0,0,0,0,0,0,0,0,0,0,0,0,0,0,0,0,0,0,0,0,0,0,0,0,0,0,0,0,0,0,0,0,0,0,0,0,0,0,0,0,0,0,0,0,0,0,0,0,0,0,0,0,0,0,0,0,0,0,0,0,0,0,0,0,0,0,0,0,0,0,0,0,0,0,0,0,0,0,0,45,
44,0,0,0,0,0,0,0,0,0,0,0,0,0,0,0,0,0,0,0,0,0,0,0,0,0,0,0,0,0,0,0,0,0,0,0,0,0,0,0,0,0,0,0,0,0,0,0,0,0,0,0,0,0,0,0,0,0,0,0,0,0,0,0,0,0,0,0,0,0,0,0,0,0,0,0,0,0,0,0,0,0,0,45,
44,0,0,0,0,0,0,0,0,0,0,0,0,0,0,0,0,0,0,0,0,0,0,0,0,0,0,0,0,0,0,0,0,0,0,0,0,0,0,0,0,0,0,0,0,0,0,0,0,0,0,0,0,0,0,0,0,0,0,0,0,0,0,0,0,0,0,0,0,0,0,0,0,0,0,0,0,0,0,0,0,0,0,45,
44,0,0,0,0,0,0,0,0,0,0,0,0,0,0,0,0,0,0,0,0,0,0,0,0,0,0,0,0,0,0,0,0,0,0,0,0,0,0,0,0,0,0,0,0,0,0,0,0,0,0,0,0,0,0,0,0,0,0,0,0,0,0,0,0,0,0,0,0,0,0,0,0,0,0,0,0,0,0,0,0,0,0,45,
44,0,0,0,0,0,0,0,0,0,0,0,0,0,0,0,0,0,0,0,0,0,0,0,0,0,0,0,0,0,0,0,0,0,0,0,0,0,0,0,0,0,0,0,0,0,0,0,0,0,0,0,0,0,0,0,0,0,0,0,0,0,0,0,0,0,0,0,0,0,0,0,0,0,0,0,0,0,0,0,0,0,0,45,
44,0,0,0,0,0,0,0,0,0,0,0,0,0,0,0,0,0,0,0,0,0,0,0,0,0,0,0,0,0,0,0,0,0,0,0,0,0,0,0,0,0,0,0,0,0,0,0,0,0,0,0,0,0,0,0,0,0,0,0,0,0,0,0,0,0,0,0,0,0,0,0,0,0,0,0,0,0,0,0,0,0,0,45,
44,0,0,0,0,0,0,0,0,0,0,0,0,0,0,0,0,0,0,0,0,0,0,0,0,0,0,0,0,0,0,0,0,0,0,0,0,0,0,0,0,0,0,0,0,0,0,0,0,0,0,0,0,0,0,0,0,0,0,0,0,0,0,0,0,0,0,0,0,0,0,0,0,0,0,0,0,0,0,0,0,0,0,45,
44,0,0,0,0,0,0,0,0,0,0,0,0,0,0,0,0,0,0,0,0,0,0,0,0,0,0,0,0,0,0,0,0,0,0,0,0,0,0,0,0,0,0,0,0,0,0,0,0,0,0,0,0,0,0,0,0,0,0,0,0,0,0,0,0,0,0,0,0,0,0,0,0,0,0,0,0,0,0,0,0,0,0,45,
44,0,0,0,0,0,0,0,0,0,0,0,0,0,0,0,0,0,0,0,0,0,0,0,0,0,0,0,0,0,0,0,0,0,0,0,0,0,0,0,0,0,0,0,0,0,0,0,0,0,0,0,0,0,0,0,0,0,0,0,0,0,0,0,0,0,0,0,0,0,0,0,0,0,0,0,0,0,0,0,0,0,0,45,
44,0,0,0,0,0,0,0,0,0,0,0,0,0,0,0,0,0,0,0,0,0,0,0,0,0,0,0,0,0,0,0,0,0,0,0,0,0,0,0,0,0,0,0,0,0,0,0,0,0,0,0,0,0,0,0,0,0,0,0,0,0,0,0,0,0,0,0,0,0,0,0,0,0,0,0,0,0,0,0,0,0,0,45,
44,0,0,0,0,0,0,0,0,0,0,0,0,0,0,0,0,0,0,0,0,0,0,0,0,0,0,0,0,0,0,0,0,0,0,0,0,0,0,0,0,0,0,0,0,0,0,0,0,0,0,0,0,0,0,0,0,0,0,0,0,0,0,0,0,0,0,0,0,0,0,0,0,0,0,0,0,0,0,0,0,0,0,45,
44,0,0,0,0,0,0,0,0,0,0,0,0,0,0,0,0,0,0,0,0,0,0,0,0,0,0,0,0,0,0,0,0,0,0,0,0,0,0,0,0,0,0,0,0,0,0,0,0,0,0,0,0,0,0,0,0,0,0,0,0,0,0,0,0,0,0,0,0,0,0,0,0,0,0,0,0,0,0,0,0,0,0,45,
44,0,0,0,0,0,0,0,0,0,0,0,0,0,0,0,0,0,0,0,0,0,0,0,0,0,0,0,0,0,0,0,0,0,0,0,0,0,0,0,0,0,0,0,0,0,0,0,0,0,0,0,0,0,0,0,0,0,0,0,0,0,0,0,0,0,0,0,0,0,0,0,0,0,0,0,0,0,0,0,0,0,0,45,
44,0,0,0,0,0,0,0,0,0,0,0,0,0,0,0,0,0,0,0,0,0,0,0,0,0,0,0,0,0,0,0,0,0,0,0,0,0,0,0,0,0,0,0,0,0,0,0,0,0,0,0,0,0,0,0,0,0,0,0,0,0,0,0,0,0,0,0,0,0,0,0,0,0,0,0,0,0,0,0,0,0,0,45,
35,35,35,35,35,35,35,35,35,35,35,35,35,35,35,35,35,35,35,35,35,35,35,35,35,35,35,35,35,35,35,35,35,35,35,35,35,35,35,35,35,35,35,35,35,35,35,35,35,35,35,35,35,35,35,35,35,35,35,35,35,35,35,35,35,35,35,35,35,35,35,35,35,35,35,35,35,35,35,35,35,35,35,35
</data>
 </layer>
</map>
