<?xml version="1.0" encoding="UTF-8"?>
<map version="1.10" tiledversion="1.11.2" orientation="orthogonal" renderorder="right-down" width="84" height="52" tilewidth="48" tileheight="48" infinite="0" nextlayerid="18" nextobjectid="166">
 <tileset firstgid="1" name="Cemetery_Objects" tilewidth="48" tileheight="48" tilecount="63" columns="7">
  <image source="tiles/Cemetery_Objects.png" width="336" height="432"/>
 </tileset>
 <tileset firstgid="64" name="Village_Ground" tilewidth="48" tileheight="48" tilecount="18" columns="6">
  <image source="tiles/Village_Ground.png" width="288" height="144"/>
 </tileset>
 <tileset firstgid="82" name="Village_Props" tilewidth="48" tileheight="48" tilecount="100" columns="10">
  <image source="tiles/Village_Props.png" width="480" height="480"/>
 </tileset>
 <tileset firstgid="182" name="Cemetery_Ground" tilewidth="48" tileheight="48" tilecount="24" columns="4">
  <image source="tiles/Cemetery_Ground.png" width="192" height="288"/>
 </tileset>
 <layer id="11" name="grounds" width="84" height="52">
  <data encoding="csv">
198,199,198,199,198,199,198,199,198,199,198,199,198,199,198,199,198,199,198,199,198,199,198,199,198,199,198,199,198,199,198,199,198,199,198,199,198,199,198,199,198,199,198,199,198,199,198,199,198,199,198,199,198,199,198,199,198,199,198,199,198,199,198,199,198,199,198,199,198,199,198,199,198,199,198,199,198,199,198,199,198,199,198,199,
198,198,199,203,202,203,202,203,202,203,202,203,202,203,202,203,202,203,202,203,202,203,202,203,202,203,202,203,202,203,202,203,202,203,202,203,202,203,202,203,202,203,202,203,202,203,202,203,202,203,202,203,202,203,202,203,202,203,202,203,202,203,202,203,202,203,202,203,202,203,202,203,202,203,202,203,202,203,202,203,202,203,202,203,
194,198,198,199,198,199,198,199,198,199,198,199,198,199,198,199,198,199,198,199,198,199,198,199,198,199,198,199,198,199,198,199,198,199,198,199,198,199,198,199,198,199,198,199,198,199,198,199,198,199,198,199,198,199,198,199,198,199,198,199,198,199,198,199,198,199,198,199,198,199,198,199,198,199,198,199,198,199,198,199,198,199,198,199,
194,202,202,198,199,203,202,203,202,203,202,203,202,203,202,203,202,203,202,203,202,203,202,203,202,203,202,203,202,203,202,203,202,203,202,203,202,203,202,203,202,203,202,203,202,203,202,203,202,203,202,203,202,203,202,203,202,203,202,203,202,203,202,203,202,203,202,203,202,203,202,203,202,203,202,203,202,203,202,203,202,203,202,203,
194,199,198,202,198,199,198,199,198,199,198,199,198,199,198,199,198,199,198,199,198,199,198,199,198,199,198,199,198,199,198,199,198,199,198,199,198,199,198,199,198,199,198,199,198,199,198,199,198,199,198,199,198,199,198,199,198,199,198,199,198,199,198,199,198,199,198,199,198,199,198,199,198,199,198,199,198,199,198,199,198,199,198,199,
194,203,202,203,202,198,198,198,199,203,202,203,202,203,202,203,202,203,202,203,202,203,202,203,202,203,202,203,202,203,202,203,202,203,202,203,202,203,202,203,202,203,202,203,202,203,202,203,202,203,202,203,202,203,202,203,202,203,202,203,202,203,202,203,202,203,202,203,202,203,202,203,202,203,202,203,202,203,202,203,202,203,202,203,
194,199,198,199,198,202,202,202,198,199,198,199,198,199,198,199,198,199,198,199,198,199,198,199,198,199,198,199,198,199,198,199,198,199,198,199,198,199,198,199,198,199,198,199,198,199,198,199,198,199,198,199,198,199,198,199,198,199,198,199,198,199,198,199,198,199,198,199,198,199,198,199,198,199,198,199,198,199,198,199,198,199,198,199,
194,203,202,203,202,203,202,203,202,198,199,203,202,203,202,203,202,203,202,203,202,203,202,203,202,203,202,203,202,203,202,203,202,203,202,203,202,203,202,203,202,203,202,203,202,203,202,203,202,203,202,203,202,203,202,203,202,203,202,203,202,203,202,203,202,203,202,203,202,203,202,203,202,203,202,203,202,203,202,203,202,203,202,203,
194,199,198,199,198,199,198,199,198,202,198,199,198,199,198,199,198,199,198,199,198,199,198,199,198,199,198,199,198,199,198,199,198,199,198,199,198,199,198,199,198,199,198,199,198,199,198,199,198,199,198,199,198,199,198,199,198,199,198,199,198,199,198,199,198,199,198,199,198,199,198,199,198,199,198,199,198,199,198,199,198,199,198,199,
194,203,202,203,202,203,202,203,202,203,202,198,199,0,0,0,202,203,202,203,202,203,202,203,202,203,202,203,202,203,202,203,202,203,202,203,202,203,202,203,202,203,202,203,202,203,202,203,202,203,202,203,202,203,202,203,202,203,202,203,202,203,202,203,202,203,202,203,202,203,202,203,202,203,202,203,202,203,202,203,202,203,202,203,
194,199,198,199,198,199,198,199,198,199,198,202,198,198,198,199,198,199,198,199,198,199,198,199,198,199,198,199,198,199,198,199,198,199,198,199,198,199,198,199,198,199,198,199,198,199,198,199,198,199,198,199,198,199,198,199,198,199,198,199,198,199,198,199,198,199,198,199,198,199,198,199,198,199,198,199,198,199,198,199,198,199,198,199,
194,203,202,203,202,203,202,203,202,203,202,203,202,202,202,194,199,203,202,203,202,203,202,203,202,203,202,203,202,203,202,203,202,203,202,203,202,203,202,203,202,203,202,203,202,203,202,203,202,203,202,203,202,203,202,203,202,203,202,203,202,203,202,203,202,203,202,203,202,203,202,203,202,203,202,203,202,203,202,203,202,203,202,203,
194,199,198,199,198,199,198,199,198,199,198,199,198,199,198,194,198,198,199,199,198,199,198,199,198,199,198,199,198,199,198,199,198,199,198,199,198,199,198,199,198,199,198,199,198,199,198,199,198,199,198,199,198,199,198,199,198,199,198,199,198,199,198,199,198,199,198,199,198,199,198,199,198,199,198,199,198,199,198,199,198,199,198,199,
202,203,202,203,202,203,202,203,202,203,202,203,202,203,202,194,202,202,198,199,202,203,202,203,202,203,202,203,202,203,202,203,202,203,202,203,202,203,202,203,202,203,202,203,202,203,202,203,202,203,202,203,202,203,202,203,202,203,202,203,202,203,202,203,202,203,202,203,202,203,202,203,202,203,202,203,202,203,202,203,202,203,202,203,
198,199,198,199,198,199,198,199,198,199,198,199,198,199,198,199,198,199,202,198,198,199,198,199,198,199,198,199,198,199,198,199,198,199,198,199,198,199,198,199,198,199,198,199,198,199,198,199,198,199,198,199,198,199,198,199,198,199,198,199,198,199,198,199,198,199,198,199,198,199,198,199,198,199,198,199,198,199,198,199,198,199,198,199,
202,203,202,203,202,203,202,203,202,203,202,203,202,203,202,203,202,203,202,202,202,198,199,203,202,203,202,203,202,203,202,203,202,203,202,203,202,203,202,203,202,203,202,203,202,203,202,203,202,203,202,203,202,203,202,203,202,203,202,203,202,203,202,203,202,203,202,203,202,203,202,203,202,203,202,203,202,203,202,203,202,203,202,203,
198,199,198,199,198,199,198,199,198,199,198,199,198,199,198,199,198,199,198,199,198,202,198,198,199,199,198,199,198,199,198,199,198,199,198,199,198,199,198,199,198,199,198,199,198,199,198,199,198,199,198,199,198,199,198,199,198,199,198,199,198,199,198,199,198,199,198,199,198,199,198,199,198,199,198,199,198,199,198,199,198,199,198,199,
202,203,202,203,202,203,202,203,202,203,202,203,202,203,202,203,202,203,202,203,202,203,202,198,198,199,202,203,202,203,202,203,202,203,202,203,202,203,202,203,202,203,202,203,202,203,202,203,202,203,202,203,202,203,202,203,202,203,202,203,202,203,202,203,202,203,202,203,202,203,202,203,202,203,202,203,202,203,202,203,202,203,202,203,
198,199,198,199,198,199,198,199,198,199,198,199,198,199,198,199,198,199,198,199,198,199,198,202,202,198,198,199,198,199,198,199,198,199,198,199,198,199,198,199,198,199,198,199,198,199,198,199,198,199,198,199,198,199,198,199,198,199,198,199,198,199,198,199,198,199,198,199,198,199,198,199,198,199,198,199,198,199,198,199,198,199,198,199,
202,203,202,203,202,203,202,203,202,203,202,203,202,203,202,203,202,203,202,203,202,203,202,203,202,202,202,198,198,199,202,203,202,203,202,203,202,203,202,203,202,203,202,203,202,203,202,203,202,203,202,203,202,203,202,203,202,203,202,203,202,203,202,203,202,203,202,203,202,203,202,203,202,203,202,203,202,203,202,203,202,203,202,203,
198,199,198,199,198,199,198,199,198,199,198,199,198,199,198,199,198,199,198,199,198,199,198,199,198,199,198,202,202,198,198,199,198,199,198,199,198,199,198,199,198,199,198,199,198,199,198,199,198,199,198,199,198,199,198,199,198,199,198,199,198,199,198,199,198,199,198,199,198,199,198,199,198,199,198,199,198,199,198,199,198,199,198,199,
202,203,202,203,202,203,202,203,202,203,202,203,202,203,202,203,202,203,202,203,202,203,202,203,202,203,202,203,202,202,202,198,199,203,202,203,202,203,202,203,202,203,202,203,202,203,202,203,202,203,202,203,202,203,202,203,202,203,202,203,202,203,202,203,202,203,202,203,202,203,202,203,202,203,202,203,202,203,202,203,202,203,202,203,
198,199,198,199,198,199,198,199,198,199,198,199,198,199,198,199,198,199,198,199,198,199,198,199,198,199,198,199,198,199,198,202,198,198,199,199,198,199,198,199,198,199,198,199,198,199,198,199,198,199,198,199,198,199,198,199,198,199,198,199,198,199,198,199,198,199,198,199,198,199,198,199,198,199,198,199,198,199,198,199,198,199,198,199,
202,203,202,203,202,203,202,203,202,203,202,203,202,203,202,203,202,203,202,203,202,203,202,203,202,203,202,203,202,203,202,203,202,202,198,198,199,203,202,203,202,203,202,203,202,203,202,203,202,203,202,203,202,203,202,203,202,203,202,203,202,203,202,203,202,203,202,203,202,203,202,203,202,203,202,203,202,203,202,203,202,203,202,203,
198,199,198,199,198,199,198,199,198,199,198,199,198,199,198,199,198,199,198,199,198,199,198,199,198,199,198,199,198,199,198,199,198,199,202,202,198,198,199,199,198,199,198,199,198,199,198,199,198,199,198,199,198,199,198,199,198,199,198,199,198,199,198,199,198,199,198,199,198,199,198,199,198,199,198,199,198,199,198,199,198,199,198,199,
202,203,202,203,202,203,202,203,202,203,202,203,202,203,202,203,202,203,202,203,202,203,202,203,202,203,202,203,202,203,202,203,202,203,202,203,202,202,198,199,202,203,202,203,202,203,202,203,202,203,202,203,202,203,202,203,202,203,202,203,202,203,202,203,202,203,202,203,202,203,202,203,202,203,202,203,202,203,202,203,202,203,202,203,
198,199,198,199,198,199,198,199,198,199,198,199,198,199,198,199,198,199,198,199,198,199,198,199,198,199,198,199,198,199,198,199,198,199,198,199,198,199,202,198,198,199,198,199,198,199,198,199,198,199,198,199,198,199,198,199,198,199,198,199,198,199,198,199,198,199,198,199,198,199,198,199,198,199,198,199,198,199,198,199,198,199,198,199,
202,203,202,203,202,203,202,203,202,203,202,203,202,203,202,203,202,203,202,203,202,203,202,203,202,203,202,203,202,203,202,203,202,203,202,203,202,203,202,202,202,198,198,199,202,203,202,203,202,203,202,203,202,203,202,203,202,203,202,203,202,203,202,203,202,203,202,203,202,203,202,203,202,203,202,203,202,203,202,203,202,203,202,203,
198,199,198,199,198,199,198,199,198,199,198,199,198,199,198,199,198,199,198,199,198,199,198,199,198,199,198,199,198,199,198,199,198,199,198,199,198,199,198,199,198,202,202,198,199,199,198,199,198,199,198,199,198,199,198,199,199,199,198,199,198,199,198,199,198,199,198,199,198,199,198,199,198,199,198,199,198,199,198,199,198,199,198,199,
202,203,202,203,202,203,202,203,202,203,202,203,202,203,202,203,202,203,202,203,202,203,202,203,202,203,202,203,202,203,202,203,202,203,202,203,202,203,202,203,202,203,202,202,198,199,202,203,202,203,198,199,199,199,199,203,203,203,202,203,202,203,202,203,202,203,202,203,202,203,202,203,202,203,202,203,202,203,202,203,202,203,202,203,
198,199,198,199,198,199,198,199,198,199,198,199,198,199,198,199,198,199,198,199,198,199,198,199,198,199,198,199,198,199,198,199,198,199,198,199,198,198,199,199,198,199,198,199,198,199,199,199,199,199,199,203,203,203,203,199,198,199,198,199,198,199,198,199,198,199,198,199,198,199,198,199,198,199,198,199,198,199,198,199,198,199,198,199,
202,203,202,203,202,203,202,203,202,203,202,203,202,203,202,203,202,203,202,203,202,203,202,203,202,203,202,203,202,203,202,203,202,203,202,198,198,202,203,203,202,198,199,199,199,203,203,203,203,203,203,202,203,203,202,203,202,203,202,203,202,203,202,203,202,203,202,203,202,203,202,203,202,203,202,203,202,203,202,203,202,203,202,203,
198,199,198,199,198,199,198,199,198,199,198,199,198,199,198,199,198,199,198,199,198,199,198,199,198,199,198,199,198,199,198,199,198,198,198,202,202,203,199,199,199,199,203,203,203,202,202,203,198,198,199,199,198,199,198,199,198,199,198,199,198,199,198,199,198,199,198,199,198,199,198,199,198,199,198,199,198,199,198,199,198,199,198,199,
202,203,202,203,202,203,202,203,202,203,202,203,202,203,202,203,202,203,202,203,202,203,202,203,202,203,202,203,202,203,202,203,202,202,202,203,203,203,203,203,203,203,198,198,202,202,199,198,202,202,198,198,199,203,202,203,202,203,202,203,202,203,202,203,202,203,202,203,202,203,202,203,202,203,202,203,202,203,202,203,202,203,202,203,
198,199,198,199,198,199,198,199,198,199,198,199,198,199,198,199,198,199,198,199,198,199,198,199,198,199,198,198,198,198,198,198,198,198,198,198,202,202,202,202,202,202,202,202,202,202,203,202,203,202,202,202,198,199,198,199,198,199,198,199,198,199,198,199,198,199,198,199,198,199,198,199,198,199,198,199,198,199,198,199,198,199,198,199,
202,203,202,203,202,203,202,203,202,203,202,203,202,203,202,203,202,203,202,203,202,203,202,203,202,203,202,202,202,202,202,202,202,202,202,202,203,199,199,199,199,199,199,199,199,198,199,198,199,198,199,198,202,198,199,203,202,203,202,203,202,203,202,203,202,203,202,203,202,203,202,203,202,203,202,203,202,203,202,203,202,203,202,203,
198,199,198,199,198,199,198,199,198,199,198,199,198,199,198,199,198,199,198,199,198,199,198,199,198,199,198,199,198,199,198,199,198,199,198,199,202,203,203,203,203,203,203,203,203,199,199,199,199,202,203,202,203,202,198,198,199,199,198,199,198,199,198,199,198,199,198,199,198,199,198,199,198,199,198,199,198,199,198,199,198,199,198,199,
202,203,202,203,202,203,202,203,202,203,202,203,202,203,202,203,202,203,202,203,202,203,202,203,202,203,202,203,202,203,202,203,202,203,202,203,202,203,202,203,202,203,202,203,202,203,203,203,203,199,199,199,199,198,202,202,198,198,199,203,202,203,202,203,202,203,202,203,202,203,202,203,202,203,202,203,202,203,202,203,202,203,202,203,
198,199,198,199,198,199,198,199,198,199,198,199,198,199,198,199,198,199,198,199,198,199,198,199,198,199,198,199,198,199,198,199,198,199,198,199,198,199,198,199,198,199,198,199,198,199,198,199,202,203,203,203,203,199,199,199,202,198,198,199,198,199,198,199,198,199,198,199,198,199,198,199,198,199,198,199,198,199,198,199,198,199,198,199,
202,203,202,203,202,203,202,203,202,203,202,203,202,203,202,203,202,203,202,203,202,203,202,203,202,203,202,203,202,203,202,203,202,203,202,203,202,203,202,203,202,203,202,203,202,203,202,203,202,203,202,203,202,203,203,203,199,199,199,199,199,203,202,203,202,203,202,203,202,203,202,203,202,203,202,203,202,203,202,203,202,203,202,203,
198,199,198,199,198,199,198,199,198,199,198,199,198,199,198,199,198,199,198,199,198,199,198,199,198,199,198,199,198,199,198,199,198,199,198,199,198,199,198,199,198,199,198,199,198,199,198,199,198,199,198,199,198,199,198,202,203,203,203,203,199,199,199,199,198,199,198,199,198,199,198,199,198,199,198,199,198,199,198,199,198,199,198,199,
202,203,202,203,202,203,202,203,202,203,202,203,202,203,202,203,202,203,202,203,202,203,202,203,202,203,202,203,202,203,202,203,202,203,202,203,202,203,202,203,202,203,202,203,202,203,202,203,202,203,202,203,202,203,202,203,202,203,202,202,203,203,203,199,202,203,202,203,202,203,202,203,202,203,202,203,202,203,202,203,202,203,202,203,
198,199,198,199,198,199,198,199,198,199,198,199,198,199,198,199,198,199,198,199,198,199,198,199,198,199,198,199,198,199,198,199,198,199,198,199,198,199,198,199,198,199,198,199,198,199,198,199,198,199,198,199,198,199,198,199,198,199,198,199,198,202,203,203,198,199,198,199,198,199,198,199,198,199,198,199,198,199,198,199,198,199,198,199,
202,203,202,203,202,203,202,203,202,203,202,203,202,203,202,203,202,203,202,203,202,203,202,203,202,203,202,203,202,203,202,203,202,203,202,203,202,203,202,203,202,203,202,203,202,203,202,203,202,203,202,203,202,203,202,203,202,203,202,203,202,203,202,203,202,203,202,203,202,203,202,203,202,203,202,203,202,203,202,203,202,203,202,203,
198,199,198,199,198,199,198,199,198,199,198,199,198,199,198,199,198,199,198,199,198,199,198,199,198,199,198,199,198,199,198,199,198,199,198,199,198,199,198,199,198,199,198,199,198,199,198,199,198,199,198,199,198,199,198,199,198,199,198,199,198,199,198,199,198,199,198,199,198,199,198,199,198,199,198,199,198,199,198,199,198,199,198,199,
202,203,202,203,202,203,202,203,202,203,202,203,202,203,202,203,202,203,202,203,202,203,202,203,202,203,202,203,202,203,202,203,202,203,202,203,202,203,202,203,202,203,202,203,202,203,202,203,202,203,202,203,202,203,202,203,202,203,202,203,202,203,202,203,202,203,202,203,202,203,202,203,202,203,202,203,202,203,202,203,202,203,202,203,
198,199,198,199,198,199,198,199,198,199,198,199,198,199,198,199,198,199,198,199,198,199,198,199,198,199,198,199,198,199,198,199,198,199,198,199,198,199,198,199,198,199,198,199,198,199,198,199,198,199,198,199,198,199,198,199,198,199,198,199,198,199,198,199,198,199,198,199,198,199,198,199,198,199,198,199,198,199,198,199,198,199,198,199,
202,203,202,203,202,203,202,203,202,203,202,203,202,203,202,203,202,203,202,203,202,203,202,203,202,203,202,203,202,203,202,203,202,203,202,203,202,203,202,203,202,203,202,203,202,203,202,203,202,203,202,203,202,203,202,203,202,203,202,203,202,203,202,203,202,203,202,203,202,203,202,203,202,203,202,203,202,203,202,203,202,203,202,203,
198,199,198,199,198,199,198,199,198,199,198,199,198,199,198,199,198,199,198,199,198,199,198,199,198,199,198,199,198,199,198,199,198,199,198,199,198,199,198,199,198,199,198,199,198,199,198,199,198,199,198,199,198,199,198,199,198,199,198,199,198,199,198,199,198,199,198,199,198,199,198,199,198,199,198,199,198,199,198,199,198,199,198,199,
202,203,202,203,202,203,202,203,202,203,202,203,202,203,202,203,202,203,202,203,202,203,202,203,202,203,202,203,202,203,202,203,202,203,202,203,202,203,202,203,202,203,202,203,202,203,202,203,202,203,202,203,202,203,202,203,202,203,202,203,202,203,202,203,202,203,202,203,202,203,202,203,202,203,202,203,202,203,202,203,202,203,202,203,
198,199,198,199,198,199,198,199,198,199,198,199,198,199,198,199,198,199,198,199,198,199,198,199,198,199,198,199,198,199,198,199,198,199,198,199,198,199,198,199,198,199,198,199,198,199,198,199,198,199,198,199,198,199,198,199,198,199,198,199,198,199,198,199,198,199,198,199,198,199,198,199,198,199,198,199,198,199,198,199,198,199,198,199,
202,203,202,203,202,203,202,203,202,203,202,203,202,203,202,203,202,203,202,203,202,203,202,203,202,203,202,203,202,203,202,203,202,203,202,203,202,203,202,203,202,203,202,203,202,203,202,203,202,203,202,203,202,203,202,203,202,203,202,203,202,203,202,203,202,203,202,203,202,203,202,203,202,203,202,203,202,203,202,203,202,203,202,203
</data>
 </layer>
 <layer id="12" name="decals" width="84" height="52">
  <data encoding="csv">
0,0,0,0,0,0,0,0,0,0,0,0,0,0,0,0,0,0,0,0,0,0,0,0,0,0,0,0,0,0,0,0,0,0,68,68,68,69,0,0,0,0,0,0,0,0,0,0,0,0,0,0,0,0,0,0,0,0,0,0,0,0,0,0,0,0,0,0,0,0,0,0,0,0,0,0,0,0,0,0,0,0,0,0,
186,187,186,186,186,186,186,187,0,0,0,0,200,187,187,187,1,0,0,68,68,69,68,69,0,0,0,0,0,0,0,0,0,68,68,68,68,69,0,0,0,0,0,0,0,0,0,68,68,68,69,69,69,0,0,0,0,0,0,0,0,0,0,0,68,75,75,68,0,0,0,0,0,0,200,187,186,187,191,68,69,0,200,190,
1,186,190,188,189,190,190,205,0,0,0,0,186,187,191,191,1,0,0,68,68,68,68,69,0,0,0,0,0,0,0,0,68,68,69,68,69,69,0,0,0,0,0,0,0,0,0,0,68,69,68,69,0,0,0,0,0,0,0,0,0,0,0,0,68,69,68,69,0,0,0,0,0,0,186,187,184,187,190,68,68,69,69,205,
1,190,190,192,193,191,191,0,0,0,0,0,186,185,190,191,1,0,0,68,69,68,68,69,0,0,0,0,0,0,0,68,68,69,68,69,69,0,0,0,0,0,0,200,186,186,186,201,68,1,68,69,0,200,187,201,1,0,0,0,0,0,0,0,68,69,68,69,0,0,0,0,0,0,186,187,186,187,186,187,68,68,69,0,
1,190,191,190,190,190,205,0,0,0,0,0,204,191,191,191,1,0,0,68,69,69,68,69,0,0,0,0,0,0,0,68,69,69,68,69,0,0,0,0,0,0,1,190,190,186,187,187,0,80,68,69,0,190,191,187,1,0,0,0,0,0,0,0,68,68,69,68,0,0,0,0,0,0,186,187,186,187,186,187,68,68,68,69,
1,190,190,205,0,0,0,0,0,0,0,0,0,0,190,191,1,0,0,0,68,69,68,69,0,200,182,182,201,0,68,68,69,68,69,69,0,0,0,0,0,0,1,190,191,186,187,191,0,80,68,69,0,190,191,191,1,187,187,201,0,0,0,80,68,68,69,68,69,0,0,0,0,0,186,187,186,187,186,187,190,68,68,69,
1,191,191,0,0,0,0,0,0,0,0,0,0,0,190,191,1,0,0,0,0,68,68,69,0,182,182,182,182,0,68,69,68,69,69,0,0,0,0,0,0,0,1,191,186,187,187,187,0,68,68,69,200,187,190,191,191,191,185,191,0,0,0,80,69,68,69,68,69,0,0,0,0,0,186,187,186,187,186,186,187,191,68,69,
1,191,191,0,0,0,0,0,0,0,0,0,200,186,190,191,1,0,0,0,0,0,80,69,69,182,182,182,188,189,68,69,68,69,0,0,0,0,0,0,0,188,189,190,186,187,191,186,201,68,68,69,186,186,187,191,186,186,190,191,0,0,0,68,68,68,69,68,69,0,0,0,0,0,186,187,186,186,190,186,186,187,191,191,
1,191,191,0,0,0,0,0,0,0,0,0,186,186,190,191,1,0,0,0,0,0,80,68,69,182,182,182,192,193,68,69,69,69,0,0,0,0,0,0,0,192,193,190,186,186,187,186,187,68,68,69,186,186,186,186,190,190,190,205,0,0,0,68,68,68,69,69,69,0,0,0,0,0,186,187,186,190,191,190,186,187,190,191,
1,191,191,0,0,0,0,0,0,0,0,0,0,194,194,194,0,0,0,0,0,0,80,68,69,69,182,182,182,69,68,69,68,0,0,0,0,0,0,0,200,186,190,190,186,186,187,186,187,68,68,69,186,190,186,186,190,191,0,0,0,0,68,69,68,68,69,69,0,0,0,0,0,0,186,187,190,190,191,191,190,191,190,191,
1,190,186,201,0,196,0,0,0,0,0,0,0,0,0,0,0,0,0,0,0,0,0,68,69,69,68,68,69,68,69,69,0,0,0,0,0,0,0,0,186,190,190,191,190,190,191,186,187,68,68,69,190,190,190,186,190,191,0,0,0,0,68,69,68,68,69,69,0,0,0,0,0,0,186,186,187,190,186,186,186,186,190,191,
1,190,186,187,0,0,0,0,0,74,75,69,0,0,0,0,0,0,0,0,0,0,0,68,69,69,69,69,68,69,69,0,0,0,0,0,0,0,0,200,190,190,191,186,190,191,186,187,187,68,68,69,186,186,190,190,190,191,0,0,0,0,68,69,68,68,69,69,0,0,0,0,0,0,204,186,186,68,69,69,69,69,1,191,
1,190,190,186,186,201,0,0,68,68,68,69,69,0,0,0,0,0,0,0,0,0,69,68,68,69,69,68,69,69,0,0,0,0,0,0,0,0,0,190,190,191,186,190,191,187,187,187,191,68,68,69,186,186,190,191,191,187,0,0,0,0,68,68,69,68,69,69,0,0,0,0,0,0,0,204,205,68,69,68,69,69,186,186,
1,186,186,190,186,187,0,74,69,68,68,68,69,0,0,0,0,0,0,0,0,0,68,68,69,68,68,69,69,69,0,0,0,0,0,0,0,0,0,204,191,191,190,190,191,191,187,191,0,1,68,69,190,1,186,190,191,191,0,0,0,0,68,68,69,68,69,0,0,0,0,0,0,0,0,0,0,68,69,68,69,69,204,205,
1,190,190,184,186,186,201,80,68,69,69,68,68,69,0,0,0,0,0,0,0,68,68,69,68,68,69,69,69,0,0,0,0,0,0,0,0,0,0,0,0,190,191,187,1,187,187,0,0,68,68,69,0,1,190,190,191,191,201,0,0,0,68,68,69,68,69,0,0,0,0,0,0,0,0,0,0,68,69,69,69,0,0,0,
1,186,186,186,186,190,186,186,68,68,68,69,68,68,68,69,0,0,0,0,80,68,69,68,69,68,68,68,68,68,68,75,75,75,75,75,69,0,0,0,0,204,191,191,1,191,205,68,69,69,69,69,0,1,186,184,190,191,191,0,0,0,80,68,69,68,69,0,0,0,0,0,0,0,0,0,68,68,68,69,69,0,0,0,
190,190,190,190,190,190,190,190,191,1,68,68,68,68,68,69,69,69,69,68,68,69,68,69,69,69,68,68,68,68,68,69,69,69,69,69,68,68,68,68,69,0,0,0,0,0,0,80,68,69,68,69,0,204,190,190,190,190,205,0,0,0,80,68,69,68,69,0,0,0,0,0,0,0,0,68,68,68,69,68,69,0,0,0,
0,0,0,0,0,0,0,0,0,0,0,0,0,68,68,68,68,68,69,68,69,68,69,68,68,68,68,68,68,68,68,68,68,69,69,69,69,69,68,69,68,68,68,68,68,68,68,69,68,68,69,0,0,0,0,0,0,0,0,0,0,68,69,68,68,69,0,0,0,0,0,0,0,68,69,68,68,69,68,68,69,0,0,0,
0,0,0,0,0,0,0,0,0,0,0,0,0,0,68,69,69,68,69,69,68,69,68,68,69,68,68,68,69,69,69,69,69,68,68,68,68,68,68,68,69,69,69,69,69,68,68,68,68,68,69,0,0,0,0,0,0,0,0,0,68,68,68,68,68,69,0,0,75,68,75,68,68,69,68,68,69,68,69,69,68,69,75,75,
0,0,0,0,0,0,0,0,0,0,0,0,0,0,68,68,69,69,68,68,68,68,68,68,69,69,69,69,69,68,68,68,68,68,68,68,68,68,69,68,68,68,68,69,69,68,69,69,68,68,68,68,68,68,69,0,0,0,80,68,69,69,68,68,68,68,68,68,68,68,68,68,68,68,69,69,68,68,68,68,69,69,69,69,
0,0,0,0,0,0,0,0,0,0,0,0,0,0,0,68,69,68,68,69,69,69,0,0,0,0,0,0,0,0,0,0,0,0,0,0,0,68,69,68,68,69,69,68,68,69,68,68,68,68,68,68,68,68,69,68,68,68,68,69,68,68,68,68,69,68,68,68,68,68,68,68,68,69,69,69,69,68,68,69,69,0,0,0,
0,0,0,0,0,0,0,0,0,0,0,0,68,68,68,69,69,69,68,69,0,0,0,0,0,0,0,0,0,0,0,0,200,187,187,187,201,0,68,68,69,68,69,69,69,69,0,0,0,0,68,69,69,68,68,68,68,69,68,68,68,68,68,68,68,68,68,69,69,69,69,69,69,69,69,69,0,0,0,0,0,0,0,0,
0,0,0,0,0,0,0,0,0,0,68,68,68,69,69,69,200,201,69,0,0,0,0,0,0,0,0,0,0,0,0,200,187,191,191,191,191,201,68,1,69,69,69,69,0,200,187,201,0,1,0,0,0,0,68,69,68,69,68,68,68,68,68,69,68,69,69,69,69,69,69,69,0,0,0,0,0,0,0,0,0,0,0,0,
0,0,0,0,0,0,0,68,75,68,69,69,69,68,69,200,187,187,201,0,0,0,0,0,0,0,0,0,0,0,1,186,187,187,187,187,190,205,0,68,68,69,69,69,69,187,187,187,0,1,0,0,0,0,68,69,68,68,68,69,68,69,69,69,69,0,0,0,0,0,0,0,0,0,0,0,0,0,0,0,0,0,0,0,
0,0,0,0,68,69,68,68,69,68,69,69,69,69,68,187,187,184,187,0,0,0,0,0,0,0,0,0,0,200,1,186,187,191,191,191,187,190,201,69,68,69,69,68,69,191,191,191,187,1,0,0,0,0,80,69,68,68,69,69,69,68,190,190,201,0,0,0,0,0,0,0,0,0,0,0,0,0,0,0,0,0,0,0,
0,0,0,75,69,68,69,69,69,68,69,68,68,69,0,204,187,187,205,0,0,0,0,0,0,0,0,0,0,186,186,186,187,186,187,191,191,190,68,68,68,69,68,69,186,187,190,191,191,1,0,0,0,0,80,69,69,69,69,0,0,190,184,190,190,0,0,0,0,0,0,0,0,0,0,0,0,0,0,0,0,0,0,0,
0,0,80,68,68,68,69,68,68,68,69,0,0,0,0,0,0,0,0,0,0,0,0,0,0,0,0,0,200,186,190,186,186,186,187,190,191,190,68,68,69,69,0,200,186,186,187,190,191,201,0,0,0,0,80,69,68,69,69,0,0,190,190,190,190,0,0,0,0,0,0,0,0,0,0,0,0,0,0,0,0,0,0,0,
0,68,68,68,69,68,68,68,69,68,69,0,0,0,0,0,0,0,0,0,0,0,0,0,0,0,0,0,187,186,190,190,190,190,191,190,191,191,191,0,0,0,0,186,190,186,187,186,187,190,201,0,0,0,68,68,69,69,69,0,0,204,190,190,205,0,0,0,0,0,0,0,0,0,0,0,0,200,187,187,187,187,187,201,
68,68,68,69,69,68,69,68,69,69,69,75,75,68,68,68,68,68,69,0,0,0,0,0,0,0,0,0,187,186,190,191,187,187,186,190,191,190,191,0,0,0,0,186,187,190,191,187,187,190,205,0,0,0,68,68,69,68,69,0,0,0,0,0,0,0,0,0,0,0,0,200,187,187,187,187,187,187,187,191,191,191,191,191,
68,69,69,68,68,68,69,68,69,69,68,68,69,69,69,69,68,68,68,68,69,0,0,0,0,0,0,0,187,186,187,190,191,187,190,190,191,190,191,0,0,0,0,186,187,190,191,187,191,191,0,0,0,68,68,68,68,69,0,0,0,0,0,0,0,0,0,0,0,200,187,187,187,191,191,191,191,191,186,187,184,187,187,187,
68,69,68,69,68,68,69,68,69,68,68,68,68,68,68,68,69,68,69,69,68,68,69,0,0,0,0,0,187,186,187,190,191,191,190,190,191,190,191,0,0,0,200,187,187,190,191,191,187,205,0,0,0,68,69,68,68,68,69,0,0,0,0,0,0,0,0,0,0,186,187,187,187,187,187,186,186,187,187,187,191,191,191,205,
68,68,69,68,68,68,69,68,68,68,68,69,69,0,80,68,69,69,68,69,69,68,69,0,0,0,0,0,187,1,186,187,186,187,190,190,191,190,191,0,0,1,1,187,186,187,190,191,191,1,0,0,0,68,68,69,68,68,68,69,0,0,0,0,0,0,0,0,200,187,187,191,191,186,187,187,187,187,191,205,0,0,0,0,
69,0,0,0,0,68,69,68,69,69,69,0,0,0,0,0,0,0,68,68,69,69,69,0,0,0,0,0,187,1,187,186,186,186,190,190,191,190,191,0,0,1,186,187,186,187,186,190,191,1,0,0,0,68,68,68,68,68,68,68,69,68,68,69,0,0,0,0,186,1,186,186,186,186,187,191,191,205,0,0,0,0,0,0,
0,0,0,0,0,0,68,69,68,69,0,0,0,0,0,186,200,201,187,1,68,69,68,69,0,0,0,0,204,1,186,186,190,190,190,191,190,205,0,0,0,1,186,187,186,186,190,191,190,1,0,0,68,68,68,68,68,68,68,68,68,68,69,69,0,0,0,0,204,1,186,186,187,187,187,0,0,0,0,196,0,0,0,0,
0,200,182,201,0,1,68,69,68,69,0,0,0,200,186,190,190,186,187,1,0,68,69,69,0,0,0,0,0,190,190,190,191,190,191,186,0,0,0,68,69,1,186,187,190,190,191,186,190,1,0,0,80,68,68,68,68,68,69,69,68,68,68,69,0,0,0,200,186,1,190,186,187,191,191,0,0,0,0,0,0,0,0,0,
186,187,187,187,201,0,68,68,68,69,0,0,0,190,190,190,191,186,187,1,0,68,69,68,69,0,0,0,0,0,204,186,186,186,205,0,0,80,68,69,69,0,204,186,186,190,191,190,205,0,0,0,80,68,69,68,69,69,69,68,68,68,68,68,69,0,0,204,190,1,191,190,191,190,205,0,0,0,0,0,0,0,200,187,
186,187,191,187,187,0,0,68,69,0,0,0,0,187,186,186,187,186,187,1,0,68,69,68,69,0,0,0,0,0,0,204,190,205,0,0,0,80,69,69,69,0,0,204,186,187,190,191,0,0,0,0,0,68,68,68,68,68,68,68,68,69,69,68,68,69,69,69,69,0,0,0,0,0,0,0,0,0,0,0,0,0,186,187,
186,186,187,187,205,0,0,68,69,0,0,0,200,187,186,187,187,186,187,1,0,68,69,69,68,69,0,0,0,0,0,0,0,0,0,0,0,80,69,69,69,0,0,0,204,186,190,205,0,0,0,0,68,68,69,69,0,0,0,0,0,68,68,68,68,68,68,68,69,0,0,0,0,0,0,0,0,0,0,0,0,200,187,187,
186,190,191,190,0,0,0,0,0,0,196,0,187,187,186,187,191,186,187,1,0,0,68,69,68,69,0,0,0,0,0,0,0,0,0,0,0,68,68,68,69,0,0,0,0,0,0,0,0,0,0,0,68,68,69,69,0,0,0,0,0,0,0,0,0,80,69,69,69,0,0,0,0,0,0,0,0,0,0,200,187,187,187,191,
186,190,191,190,0,0,0,0,0,0,0,0,186,187,186,187,186,186,187,1,0,0,0,68,69,69,69,0,0,0,0,0,0,0,0,0,0,68,68,68,68,69,0,0,0,0,0,0,0,0,0,68,68,68,69,69,0,0,0,0,0,0,0,0,0,0,68,69,186,1,0,0,0,0,0,0,200,187,187,187,187,191,191,190,
186,190,191,205,0,0,0,0,0,200,186,187,186,187,190,191,187,186,187,1,0,0,0,68,68,69,69,0,0,0,0,0,0,0,0,0,0,68,69,68,68,68,69,0,0,0,0,0,0,0,68,68,68,69,68,69,0,0,0,0,0,0,0,0,0,200,186,187,186,1,186,186,186,186,187,187,187,187,191,191,191,186,190,191,
190,190,191,0,0,0,0,0,0,190,186,187,186,187,190,191,187,186,187,201,0,0,0,68,68,68,69,69,0,0,0,0,0,0,0,0,0,68,69,68,68,68,68,68,68,68,68,68,68,68,68,68,69,68,69,69,0,0,0,0,0,0,0,0,0,190,186,186,190,1,190,190,190,190,191,191,191,191,186,186,190,190,190,191,
190,191,190,0,0,0,0,0,0,190,186,187,186,187,190,191,191,186,187,186,0,0,0,0,68,69,68,69,0,0,0,0,0,0,0,0,0,0,68,69,68,68,69,68,68,68,68,68,69,68,69,69,68,69,69,0,0,0,0,0,0,0,0,0,0,204,190,190,190,191,191,191,191,191,191,186,187,187,190,190,190,188,189,191,
190,191,187,0,0,0,0,0,0,186,186,184,187,186,190,191,190,186,187,186,0,0,0,0,68,68,68,69,69,0,0,0,0,0,0,0,0,0,0,0,68,69,69,68,68,68,68,68,68,69,68,69,69,68,69,0,0,0,0,0,0,0,0,0,0,0,0,204,186,190,186,186,186,190,186,186,199,199,186,186,190,192,193,191,
190,184,191,0,0,0,0,0,0,190,190,184,191,190,190,191,190,186,187,205,0,0,0,0,0,68,68,68,68,69,69,0,0,0,0,0,0,0,0,0,0,68,68,68,68,68,69,69,200,187,201,69,69,69,69,0,0,0,0,0,0,0,0,0,0,0,0,0,186,186,190,190,190,190,190,205,199,199,204,190,190,190,191,205,
186,190,191,0,0,0,0,0,0,190,191,190,186,190,191,187,190,186,187,1,0,0,0,0,0,0,0,81,81,81,81,75,75,75,75,0,0,0,0,0,68,68,68,68,69,68,69,0,187,187,187,69,69,69,69,69,0,0,0,0,0,0,0,0,0,0,0,0,204,190,190,205,0,0,0,0,0,0,0,0,0,0,0,0,
190,190,205,0,0,0,200,190,190,191,187,190,186,190,191,187,190,186,187,1,0,0,0,0,0,0,0,0,0,0,0,68,69,69,68,69,0,0,68,68,69,68,69,69,69,200,187,187,187,187,187,0,68,69,68,69,69,68,69,0,0,0,0,0,0,0,0,0,0,0,0,0,0,0,0,0,0,0,0,0,0,0,0,0,
0,0,0,0,0,0,190,190,191,187,191,190,190,190,191,191,186,187,187,1,0,0,0,0,0,0,0,0,0,0,0,0,68,69,69,68,68,68,69,69,69,69,69,68,200,187,187,187,187,187,187,187,201,68,68,68,69,69,69,68,68,69,0,0,0,0,0,0,0,0,0,0,0,0,0,0,0,0,0,0,68,68,69,0,
0,0,0,0,0,0,190,191,191,191,186,190,190,190,191,186,187,187,191,1,0,0,0,0,0,0,0,0,0,0,68,68,68,68,68,68,69,69,68,68,68,69,0,0,187,187,187,187,187,187,187,185,187,0,80,68,68,68,69,69,69,69,68,68,68,68,68,69,0,0,0,0,0,0,0,0,0,0,68,68,68,68,69,69,
0,0,0,0,0,0,190,190,190,190,190,190,191,186,186,187,187,191,187,1,0,0,0,0,0,0,0,0,0,68,68,68,69,69,69,68,69,0,0,0,0,0,0,0,187,187,187,187,187,187,187,187,187,0,80,68,68,69,69,68,68,69,69,69,69,69,69,69,69,69,69,69,75,75,75,69,69,69,69,69,69,69,69,69,
0,0,0,0,0,0,190,191,187,187,187,187,187,187,187,187,187,190,191,1,0,0,0,0,0,0,0,0,68,68,68,69,69,68,68,69,0,0,0,0,0,0,0,0,204,187,187,187,187,187,187,187,187,0,0,68,68,68,68,68,68,68,68,69,69,68,69,69,68,68,68,69,69,69,68,68,69,69,69,69,69,69,69,69,
0,0,0,0,0,0,190,191,191,191,191,191,191,191,191,191,191,190,191,1,0,0,0,0,0,0,0,68,69,69,0,0,0,0,0,0,0,0,0,0,0,0,0,0,0,204,187,187,187,187,187,187,205,0,0,0,0,0,68,68,69,69,69,68,69,69,69,69,69,69,69,68,69,69,69,69,69,69,69,69,69,69,68,68
</data>
 </layer>
 <layer id="5" name="walls" width="84" height="52">
  <data encoding="csv">
6,11,11,11,11,11,11,11,11,11,11,11,11,11,11,27,11,11,11,11,11,11,11,11,11,11,11,11,11,11,11,11,11,11,11,11,11,11,11,11,11,11,11,11,11,11,11,11,11,11,11,11,11,11,11,11,11,11,11,11,11,11,11,11,11,11,11,11,11,11,11,11,11,11,11,11,11,11,11,11,11,11,11,7,
13,0,0,0,0,0,0,0,0,0,0,0,0,0,0,34,0,0,0,0,0,0,0,0,0,0,0,0,0,0,0,0,0,0,0,0,0,0,0,0,0,0,0,0,0,0,0,0,0,0,0,0,0,0,0,0,0,0,0,0,0,0,0,0,0,0,0,0,0,0,0,0,0,0,0,0,0,0,0,0,0,0,0,14,
20,0,0,0,0,0,0,0,0,0,0,0,0,0,0,21,0,0,0,0,0,0,0,0,0,0,0,0,0,0,0,0,0,0,0,0,0,0,0,0,0,0,6,0,0,0,0,0,28,0,0,0,28,0,0,7,0,0,0,0,0,0,0,0,0,0,0,0,0,0,0,0,0,0,0,0,0,0,0,0,0,0,0,21,
20,0,0,0,0,0,0,0,0,0,0,0,0,0,0,21,0,0,0,0,0,0,0,0,0,0,0,0,0,0,0,0,0,0,0,0,0,0,0,0,0,0,13,11,11,11,11,11,35,0,0,0,35,11,11,14,0,0,0,0,0,0,0,0,0,0,0,0,0,0,0,0,0,0,0,0,0,0,0,0,0,0,0,21,
20,0,0,0,0,0,0,0,0,0,0,0,0,0,0,21,0,0,0,0,0,0,0,0,0,0,0,0,0,0,0,0,0,0,0,0,0,0,0,0,0,0,20,0,0,0,0,0,0,0,0,0,0,0,0,21,0,0,0,0,0,0,0,0,0,0,0,0,0,0,0,0,0,0,0,0,0,0,0,0,0,0,0,21,
20,0,0,0,0,0,0,0,0,0,0,0,0,0,0,21,0,0,0,0,0,0,0,0,0,0,0,0,0,0,0,0,0,0,0,0,0,0,0,0,0,0,20,0,0,0,0,0,0,0,0,0,0,0,0,21,0,0,0,0,0,0,0,0,0,0,0,0,0,0,0,0,0,0,0,0,0,0,0,0,0,0,0,21,
20,0,0,0,0,0,0,0,0,0,0,0,0,0,0,21,0,0,0,0,0,0,0,0,0,0,0,0,0,0,0,0,0,0,0,0,0,0,0,0,0,0,20,0,0,0,0,0,0,0,0,0,0,0,0,0,0,0,0,0,0,0,0,0,0,0,0,0,0,0,0,0,0,0,0,0,0,0,0,0,0,0,0,21,
20,0,0,0,0,0,0,0,0,0,0,28,0,0,0,28,0,0,0,0,0,0,0,0,0,0,0,0,0,0,0,0,0,0,0,0,0,0,0,0,0,0,0,0,0,0,0,0,0,0,0,0,0,0,0,0,0,0,0,0,0,0,0,0,0,0,0,0,0,0,0,0,0,0,0,0,0,0,0,0,0,0,0,21,
20,0,0,0,0,0,0,0,0,0,0,35,11,11,11,35,0,0,0,0,0,0,0,0,0,0,0,0,0,0,0,0,0,0,0,0,0,0,0,0,0,0,0,0,0,0,0,0,0,0,0,0,0,0,0,0,0,0,0,0,0,0,0,0,0,0,0,0,0,0,0,0,0,0,0,0,0,0,0,0,0,0,0,21,
20,0,0,0,0,0,0,0,0,0,0,0,0,0,0,0,0,0,0,0,0,0,0,0,0,0,0,0,0,0,0,0,0,0,0,0,0,0,0,0,0,0,0,0,0,0,0,0,0,0,0,0,0,0,0,0,0,0,0,0,0,0,0,0,0,0,0,0,0,0,0,0,0,0,0,0,0,0,0,0,0,0,0,21,
20,0,0,0,0,0,0,0,0,0,0,0,0,0,0,0,0,0,0,0,0,0,0,0,0,0,0,0,0,0,0,0,0,0,0,0,0,0,0,0,0,0,0,0,0,0,0,0,0,0,0,0,0,0,0,0,0,0,0,0,0,0,0,0,0,0,0,0,0,0,0,0,0,0,0,0,0,28,0,0,0,28,0,21,
20,0,0,0,0,0,0,0,0,0,0,0,0,0,0,0,0,0,0,0,0,0,0,0,0,0,0,0,0,0,0,0,0,0,0,0,0,0,0,0,0,0,0,0,0,0,0,0,0,0,0,0,0,0,0,0,0,0,0,0,0,0,0,0,0,0,0,0,0,0,0,0,0,0,0,0,0,35,26,26,26,35,0,21,
20,0,0,0,0,0,0,0,0,0,0,0,0,0,0,0,0,0,0,0,0,0,0,0,0,0,0,0,0,0,0,0,0,0,0,0,0,0,0,0,0,0,0,0,6,0,0,0,27,0,0,0,7,0,0,0,0,0,0,0,0,0,0,0,0,0,0,0,0,0,0,0,0,0,0,0,0,0,0,0,0,0,0,21,
20,0,0,0,0,0,0,0,0,0,0,0,0,0,0,0,0,0,0,0,0,0,0,0,0,0,0,0,0,0,0,0,0,0,0,0,0,0,0,0,0,0,0,0,13,11,11,11,34,0,0,0,14,0,0,0,0,0,0,0,0,0,0,0,0,0,0,0,0,0,0,0,0,0,0,0,0,0,0,0,0,0,0,21,
20,0,0,0,0,0,0,0,0,0,0,0,0,0,0,0,0,0,0,0,0,0,0,0,0,0,0,0,0,0,0,0,0,0,0,0,0,0,0,0,0,0,0,0,20,0,0,0,0,0,0,0,21,0,0,0,0,0,0,0,0,0,0,0,0,0,0,0,0,0,0,0,0,0,0,0,0,0,0,0,0,0,0,21,
27,0,0,0,0,0,0,0,28,0,0,0,0,0,0,0,0,0,0,0,0,0,0,0,0,0,0,0,0,0,0,0,0,0,0,0,0,0,0,0,0,0,0,0,20,0,0,0,0,0,0,0,21,0,0,0,0,0,0,0,0,0,0,0,0,0,0,0,0,0,0,0,0,0,0,0,0,0,0,0,0,0,0,21,
34,11,11,11,11,11,11,11,35,0,0,0,0,0,0,0,0,0,0,0,0,0,0,0,0,0,0,0,0,0,0,0,0,0,0,0,0,0,0,0,0,0,0,0,0,0,0,0,0,0,0,0,0,0,0,0,0,0,0,0,0,0,0,0,0,0,0,0,0,0,0,0,0,0,0,0,0,0,0,0,0,0,0,21,
20,0,0,0,0,0,0,0,0,0,0,0,0,0,0,0,0,0,0,0,0,0,0,0,0,0,0,0,0,0,0,0,0,0,0,0,0,0,0,0,0,0,0,0,0,0,0,0,0,0,0,0,0,0,0,0,0,0,0,0,0,0,0,0,0,0,0,0,0,0,0,0,0,0,0,0,0,0,0,0,0,0,0,21,
20,0,0,0,0,0,0,0,0,0,0,0,0,0,0,0,0,0,0,0,0,0,0,0,0,0,0,0,0,0,0,0,0,0,0,0,0,0,0,0,0,0,0,0,0,0,0,0,0,0,0,0,0,0,0,0,0,0,0,0,0,0,0,0,0,0,0,0,0,0,0,0,0,0,0,0,0,0,0,0,0,0,0,21,
20,0,0,0,0,0,0,0,0,0,0,0,0,0,0,0,0,0,0,0,0,0,0,0,0,0,0,0,0,0,0,0,0,0,0,0,0,0,0,0,0,0,0,0,0,0,0,0,0,0,0,0,0,0,0,0,0,0,0,0,0,0,0,0,0,0,0,0,0,0,0,0,0,0,0,0,0,0,0,0,0,0,0,21,
20,0,0,0,0,0,0,0,0,0,0,0,0,0,0,0,0,0,0,0,0,0,0,0,0,0,0,0,0,0,0,0,0,0,0,0,0,0,0,0,0,0,0,0,0,0,0,0,0,0,0,0,0,0,0,0,0,0,0,0,0,0,0,0,0,0,0,0,0,0,0,0,0,0,0,0,0,0,0,0,0,0,0,21,
20,0,0,0,0,0,0,0,0,0,0,0,0,0,0,0,0,0,0,0,0,0,0,0,0,0,0,0,0,0,6,0,0,0,0,0,0,0,27,0,0,0,0,0,27,0,0,0,7,0,0,0,0,0,0,0,0,0,0,0,0,0,0,0,0,0,0,0,0,0,0,0,0,0,0,0,0,0,0,0,0,0,0,21,
20,0,0,0,0,0,0,0,0,0,0,0,0,0,0,0,0,0,0,0,0,0,0,0,0,0,0,0,0,0,13,11,11,11,11,11,11,11,34,0,0,0,0,0,34,11,11,11,14,0,0,0,0,0,0,0,0,0,0,0,0,0,0,0,0,0,0,0,0,0,0,0,0,0,0,0,0,0,0,0,0,0,0,21,
20,0,0,0,0,0,0,0,0,0,0,0,0,0,0,0,0,0,0,0,0,0,0,0,0,0,0,0,0,0,20,0,0,0,0,0,0,0,0,0,0,0,0,0,0,0,0,0,21,0,0,0,0,0,0,0,0,0,0,0,0,0,0,0,0,0,0,0,0,0,0,0,0,0,0,0,0,0,0,0,0,0,0,21,
20,0,0,0,0,0,0,0,0,0,0,0,0,0,0,0,0,0,0,0,0,0,0,0,0,0,0,0,0,0,20,0,0,0,0,0,0,0,0,0,0,0,0,0,0,0,0,0,21,0,0,0,0,0,0,0,0,0,0,0,0,0,0,0,0,0,0,0,0,0,0,0,0,0,0,0,0,0,0,0,0,0,0,21,
20,0,0,0,0,0,0,0,0,0,0,0,0,0,0,0,0,0,0,0,0,0,0,0,0,0,0,0,0,0,0,0,0,0,0,0,0,0,0,0,0,0,0,0,0,0,0,0,21,0,0,0,0,0,0,0,0,0,0,0,0,0,0,0,0,0,0,0,0,0,0,0,0,0,0,0,0,0,0,0,0,0,0,21,
20,0,0,0,0,0,0,0,0,0,0,0,0,0,0,0,0,0,0,0,0,0,0,0,0,0,0,0,0,0,0,0,0,0,0,0,0,0,0,0,0,0,0,0,0,0,0,0,0,0,0,0,0,0,0,0,0,0,0,0,0,0,0,0,0,0,0,0,0,0,0,0,0,0,0,0,27,0,0,0,0,0,0,21,
20,0,0,0,0,0,0,0,0,0,0,0,0,0,0,0,0,0,0,0,0,0,0,0,0,0,0,0,0,0,0,0,0,0,0,0,0,0,0,0,0,0,0,0,0,0,0,0,0,0,0,0,0,0,0,0,0,0,0,0,0,0,0,0,0,0,0,0,0,0,0,0,0,0,0,0,34,11,11,11,11,11,11,11,
20,0,0,0,0,0,0,0,0,0,0,0,0,0,0,0,0,0,0,0,0,0,0,0,0,0,0,0,0,0,0,0,0,0,0,0,0,0,0,0,0,0,0,0,0,0,0,0,0,0,0,0,0,0,0,0,0,0,0,0,0,0,0,0,0,0,0,0,0,0,0,0,0,0,0,0,0,0,0,0,0,0,0,21,
20,0,0,0,0,0,0,0,0,0,0,0,0,0,0,0,0,0,0,0,0,0,0,0,0,0,0,0,0,0,0,0,0,0,0,0,0,0,0,0,0,0,0,0,0,0,0,0,28,0,0,0,0,0,0,0,0,0,0,0,0,0,0,0,0,0,0,0,0,0,0,0,0,0,0,0,0,0,0,0,0,0,0,21,
20,0,0,0,0,0,0,0,0,0,0,0,0,0,0,0,0,0,0,0,0,0,0,0,0,0,0,0,0,0,0,0,0,0,0,0,0,0,0,0,0,0,0,0,0,0,0,0,35,11,11,0,0,0,0,0,0,0,0,0,0,0,0,0,0,0,0,0,0,0,0,0,0,0,0,0,0,0,0,0,0,0,0,21,
20,0,0,0,0,0,0,0,0,0,0,0,0,0,0,0,0,0,0,0,0,0,0,0,0,0,0,0,0,20,0,0,0,0,0,0,0,0,39,40,41,0,0,0,0,0,0,0,21,0,0,0,0,0,0,0,0,0,0,0,0,0,0,0,0,0,0,0,0,0,0,0,0,0,0,0,0,0,0,0,0,0,0,21,
20,0,0,0,0,0,0,0,0,0,0,0,0,0,0,27,0,0,7,0,0,0,0,0,0,0,0,0,0,20,0,0,0,0,0,0,0,0,46,47,48,0,0,0,0,0,0,0,21,0,0,0,0,0,0,0,0,0,0,0,0,0,0,0,0,0,0,0,21,0,0,0,0,0,0,0,0,0,0,0,0,0,0,21,
0,0,0,0,28,0,0,0,0,0,0,0,0,0,0,34,11,11,14,0,0,0,0,0,0,0,0,0,0,27,0,0,0,0,0,0,0,0,53,54,55,0,0,0,0,0,0,0,28,0,0,0,0,0,0,0,0,0,0,0,0,0,0,0,0,0,0,0,21,0,0,0,0,0,0,0,0,0,0,0,0,0,0,21,
0,0,11,11,35,0,0,0,0,0,0,0,0,0,0,0,0,0,21,0,0,0,0,0,0,0,0,0,0,34,11,11,11,11,11,11,11,11,60,61,62,11,11,11,11,11,11,11,35,0,0,0,0,0,0,0,0,0,0,0,0,0,0,0,0,0,0,0,28,0,0,0,0,0,0,0,0,0,0,0,0,0,0,21,
20,0,0,0,0,0,0,0,0,0,0,0,0,0,0,0,0,0,21,0,0,0,0,0,0,0,0,0,0,0,0,0,0,0,0,0,0,0,0,0,0,0,0,0,0,0,0,0,0,0,0,0,0,0,0,0,0,0,0,0,0,0,0,0,0,0,0,0,35,0,0,0,0,0,0,0,0,0,0,0,0,0,0,21,
20,0,0,0,0,0,0,0,0,0,0,0,0,0,0,0,0,0,21,0,0,0,0,0,0,0,0,0,0,0,0,0,0,0,0,0,0,0,0,0,0,0,0,0,0,0,0,0,0,0,0,0,0,0,0,0,0,0,0,0,0,0,0,0,0,0,0,0,0,0,0,0,0,0,0,0,0,0,0,0,0,0,0,21,
20,0,0,0,0,0,0,0,0,0,0,0,0,0,0,0,0,0,21,0,0,0,0,0,0,0,0,0,0,0,0,0,0,0,0,0,0,0,0,0,0,0,0,0,0,0,0,0,0,0,0,0,0,0,0,0,0,0,0,0,0,0,0,0,0,0,0,0,0,0,0,0,0,0,0,0,0,0,0,0,0,0,0,21,
20,0,0,0,0,0,0,0,0,0,0,0,0,0,0,0,0,0,21,0,0,0,0,0,0,0,0,0,0,0,0,0,0,0,0,0,0,0,0,0,0,0,0,0,0,0,0,0,0,0,0,0,0,0,0,0,0,0,0,0,0,0,0,0,0,0,0,0,7,0,0,0,0,0,0,0,0,0,0,0,0,0,0,21,
20,0,0,0,0,0,0,0,0,0,0,0,0,0,0,0,0,0,21,0,0,0,0,0,0,0,0,0,0,0,0,0,0,0,0,0,0,0,0,0,0,0,0,0,0,0,0,0,0,0,0,0,0,0,0,0,0,0,0,0,0,0,0,0,0,0,0,0,14,0,0,0,0,0,0,0,0,0,0,0,0,0,0,21,
20,0,0,0,0,0,0,0,0,0,0,0,0,0,0,0,0,0,21,0,0,0,0,0,0,0,0,0,0,0,0,0,0,0,0,0,0,0,0,0,0,0,0,0,0,0,0,0,0,0,0,0,0,0,0,0,0,0,0,0,0,0,0,0,0,0,0,0,21,0,0,0,0,0,0,0,0,0,0,0,0,0,0,21,
20,0,0,0,0,0,0,0,0,0,0,0,0,0,0,0,0,0,0,0,0,0,0,0,0,0,0,0,0,0,0,0,0,0,0,0,0,0,0,0,0,0,0,0,0,0,0,0,0,0,0,0,0,0,0,0,0,0,0,0,0,0,0,0,0,0,0,0,21,0,0,0,0,0,0,0,0,0,0,0,0,0,0,21,
20,0,0,0,0,0,0,0,0,0,0,0,0,0,0,0,0,0,0,0,0,0,0,0,0,0,0,0,0,0,0,0,0,0,0,0,0,0,0,0,0,0,0,0,0,0,0,0,0,0,0,0,0,0,0,0,0,0,0,0,0,0,0,0,0,0,0,0,0,0,0,0,0,0,0,0,0,0,0,0,0,0,0,21,
20,0,0,0,0,0,0,0,0,0,0,0,0,0,0,0,0,0,0,0,0,0,0,0,0,0,0,0,0,0,0,0,0,0,0,0,0,0,0,0,0,0,0,0,0,0,0,0,0,0,0,0,0,0,0,0,0,0,0,0,0,0,0,0,0,0,0,0,0,0,0,0,27,0,0,0,0,0,0,0,0,0,0,21,
20,0,0,0,0,0,0,0,0,0,0,0,0,0,0,0,0,0,0,0,0,0,0,0,0,0,0,0,0,0,0,0,0,0,0,0,0,0,0,0,0,0,0,0,0,0,0,0,0,0,0,0,0,0,0,0,0,0,0,0,0,0,0,0,11,11,11,11,11,11,11,11,34,11,11,0,0,0,0,0,0,0,0,21,
20,0,0,0,0,0,0,0,0,0,0,0,0,0,0,0,0,0,21,0,0,0,0,0,0,0,0,0,0,0,0,0,0,0,0,0,0,0,0,0,0,0,0,0,0,0,0,0,0,0,0,0,0,0,0,0,0,0,0,0,0,0,0,0,0,0,0,0,0,0,0,0,0,0,0,0,0,0,0,0,0,0,0,21,
20,0,0,0,0,0,0,0,0,0,0,0,0,0,0,0,0,0,21,0,0,0,0,0,0,0,0,0,0,0,0,0,0,0,0,0,0,0,0,0,0,0,0,0,0,0,0,0,0,0,0,0,0,0,0,0,0,0,0,0,0,0,0,0,0,0,0,0,0,0,0,0,0,0,0,0,0,0,0,0,0,0,0,21,
20,0,0,0,0,0,0,0,0,0,0,0,0,0,0,0,0,0,21,0,0,0,0,0,0,0,0,0,0,0,0,0,0,0,0,0,0,0,0,0,0,0,0,0,0,0,0,0,0,0,0,0,0,0,0,0,0,0,0,0,0,0,0,0,0,0,0,0,0,0,0,0,0,0,0,0,0,0,0,0,0,0,0,21,
20,0,0,0,0,0,0,0,0,0,0,0,0,0,0,0,0,0,21,0,0,0,0,0,0,0,0,0,0,0,0,0,0,0,0,0,0,0,0,0,0,0,0,0,0,0,0,0,0,0,0,0,0,0,0,0,0,0,0,0,0,0,0,0,0,0,0,0,0,0,0,0,0,0,0,0,0,0,0,0,0,0,0,21,
20,0,0,0,0,0,0,0,0,0,0,0,0,0,0,0,0,0,21,0,0,0,0,0,0,0,0,0,0,0,0,0,0,0,0,0,0,0,0,0,0,0,0,0,0,0,0,0,0,0,0,0,0,0,0,0,0,0,0,0,0,0,0,0,0,0,0,0,0,0,0,0,0,0,0,0,0,0,0,0,0,0,0,21,
27,0,0,0,0,0,0,0,0,0,0,0,0,0,0,0,0,0,28,0,0,0,0,0,0,0,0,0,0,0,0,0,0,0,0,0,0,0,0,0,0,0,0,0,0,0,0,0,0,0,0,0,0,0,0,0,0,0,0,0,0,0,0,0,0,0,0,0,0,0,0,0,0,0,0,0,0,0,0,0,0,0,0,28,
34,11,11,11,11,11,11,11,11,11,11,11,11,11,11,11,11,11,35,11,11,11,11,11,11,11,11,11,11,11,11,11,11,11,11,11,11,11,11,11,11,11,11,11,11,11,11,11,11,11,11,11,11,11,11,11,11,11,11,11,11,11,11,11,11,11,11,11,11,11,11,11,11,11,11,11,11,11,11,11,11,11,11,35
</data>
 </layer>
 <layer id="13" name="objects" width="84" height="52">
  <data encoding="csv">
0,0,0,0,0,0,0,0,0,0,0,0,0,0,0,0,0,0,0,0,0,0,0,0,0,0,0,0,0,0,0,0,0,0,0,0,0,0,0,0,0,0,0,0,0,0,0,0,0,0,0,0,0,0,0,0,0,0,0,0,0,0,0,0,0,0,0,0,0,0,0,0,0,0,0,0,0,0,0,0,0,0,0,0,
0,0,0,0,0,0,59,0,0,19,0,0,0,16,0,0,0,0,0,0,0,0,0,0,0,0,0,0,0,0,0,0,0,0,0,0,0,0,0,0,0,0,0,0,0,0,0,0,0,0,0,0,0,0,0,0,0,0,0,0,0,0,0,0,0,0,0,0,0,0,0,0,0,0,0,8,0,0,0,36,37,0,0,0,
0,0,52,0,0,0,0,0,0,24,0,0,0,0,59,0,0,0,0,0,0,0,0,0,0,0,0,0,0,0,0,0,0,0,0,0,0,0,0,0,0,0,0,0,0,0,0,0,0,0,0,0,0,0,0,0,0,0,0,0,0,0,0,0,26,0,0,0,0,0,0,0,0,0,0,15,0,0,45,43,44,0,0,0,
0,0,0,0,0,45,0,0,0,31,0,0,45,0,0,8,0,0,0,0,0,0,0,0,0,0,0,0,0,0,0,0,0,0,0,0,0,0,0,0,0,0,0,0,0,0,0,0,0,0,0,0,0,0,0,0,0,0,0,0,0,0,0,0,26,26,0,0,0,0,0,0,0,0,0,0,0,0,0,50,51,0,0,0,
0,0,0,0,0,0,0,0,0,0,0,0,0,0,0,15,0,0,0,0,0,0,0,0,0,0,0,0,0,0,0,0,0,0,0,0,0,0,0,0,0,0,0,0,22,0,22,0,0,0,0,0,0,0,0,0,0,0,0,0,0,0,0,0,26,26,0,0,0,0,0,0,0,0,0,0,45,0,0,26,26,0,0,0,
0,0,0,8,0,0,0,0,0,0,0,0,22,22,0,0,0,0,0,0,0,0,0,0,0,0,19,0,0,0,0,0,0,0,0,0,0,0,0,0,0,0,0,0,29,0,29,0,0,0,0,0,0,0,0,16,0,0,0,0,0,0,0,0,26,26,0,0,0,0,0,0,0,0,0,0,0,0,0,0,0,0,0,0,
0,0,0,15,0,19,45,19,0,0,0,0,29,29,0,0,0,0,0,0,0,0,0,0,0,0,33,0,0,0,0,0,0,0,0,0,0,0,0,0,0,0,0,0,1610612769,0,0,0,0,0,0,0,0,0,45,0,0,0,0,0,0,0,0,0,26,26,26,0,0,0,0,0,0,0,0,19,0,0,19,0,0,0,0,0,
0,0,45,0,0,25,0,23,0,0,0,0,0,0,0,0,0,0,0,0,0,0,0,0,0,0,0,0,0,0,0,0,0,0,0,0,0,0,0,0,0,0,0,0,0,0,0,59,0,0,0,0,0,0,0,0,0,0,0,59,0,0,0,0,0,26,26,0,0,0,0,0,0,0,0,25,0,0,25,0,0,0,0,0,
0,0,0,0,0,32,0,30,0,0,0,0,0,0,0,0,0,0,0,0,0,0,0,0,0,0,0,0,0,0,0,0,0,0,0,0,0,0,0,0,0,0,0,0,0,0,0,0,0,0,0,0,0,0,19,0,0,0,0,0,0,0,0,0,0,26,26,0,0,0,0,0,0,0,0,32,0,0,32,0,0,45,0,0,
0,0,0,0,0,0,0,0,0,0,0,0,0,0,0,0,0,0,0,0,0,0,0,0,0,0,45,0,0,0,0,0,0,0,0,0,0,0,0,0,0,0,45,0,0,0,17,0,0,0,0,0,0,0,25,0,0,0,0,0,0,0,0,0,0,26,26,0,0,0,0,0,0,0,0,0,0,0,0,0,0,0,0,16,
0,0,0,0,0,0,0,0,0,26,0,0,0,0,0,0,0,0,0,0,0,0,0,0,0,0,0,0,0,0,0,0,0,0,0,0,0,0,0,0,0,0,0,0,17,0,0,0,0,0,0,0,0,0,32,0,0,0,0,0,0,0,0,0,0,0,0,0,0,0,0,0,0,0,0,0,0,0,0,0,0,0,0,0,
0,0,0,0,0,0,0,0,26,26,0,0,0,0,0,0,0,0,0,0,0,0,0,0,0,26,26,0,0,0,0,0,0,0,0,0,0,0,0,8,0,0,0,0,0,0,59,0,0,0,0,0,0,0,0,0,0,0,0,0,0,0,0,0,0,0,0,0,0,0,0,0,0,0,0,59,0,0,0,0,0,0,0,0,
0,52,0,0,0,0,0,26,26,0,0,0,0,0,0,0,0,0,0,0,0,0,0,0,26,26,26,26,0,0,0,0,0,0,0,0,0,0,0,15,0,0,0,0,0,0,0,0,0,0,0,0,0,0,0,0,0,0,0,0,0,0,0,0,0,0,0,0,0,0,0,0,0,0,0,0,0,0,0,0,0,0,0,0,
0,0,0,0,0,0,0,0,0,0,0,0,0,0,0,0,0,0,0,0,0,0,0,0,26,26,26,0,0,0,0,0,0,0,0,0,0,0,0,0,0,45,0,0,0,0,0,0,0,0,0,0,0,0,0,0,45,0,0,0,0,0,0,0,0,0,0,0,0,0,0,0,0,0,0,0,0,0,0,0,0,81,0,0,
0,0,0,0,0,0,0,0,0,0,0,0,0,0,0,0,0,0,0,0,0,0,0,0,26,0,0,0,0,0,0,0,0,0,0,0,0,0,0,0,0,0,0,0,0,0,0,0,0,0,0,0,0,0,0,0,0,0,0,0,0,0,0,0,0,0,0,0,0,0,0,0,0,0,0,0,0,0,0,0,0,0,0,0,
0,0,0,0,52,0,0,0,0,0,0,0,0,0,0,0,0,0,0,0,0,0,0,0,0,0,0,0,0,0,0,0,0,0,0,0,0,0,0,0,0,0,0,0,0,0,0,0,0,0,0,0,0,0,0,0,0,0,0,0,0,0,0,0,0,0,0,0,0,0,0,0,0,0,0,0,0,0,0,0,0,0,0,0,
0,0,0,0,0,0,0,0,0,0,0,0,0,0,0,0,0,0,0,0,0,0,0,0,0,0,0,0,0,0,0,0,0,0,0,0,0,0,0,0,0,0,0,0,0,0,0,0,0,0,0,0,0,0,0,0,0,0,0,0,0,0,0,0,0,0,0,0,0,0,0,0,0,0,0,0,0,0,0,0,0,0,0,0,
0,0,0,0,0,0,0,0,0,0,0,0,0,0,0,0,0,0,0,0,0,0,0,0,0,0,0,0,0,0,0,0,0,0,0,0,0,0,0,0,0,0,0,0,0,0,0,0,0,0,0,0,0,0,0,0,0,0,0,0,0,0,0,0,0,0,0,0,0,0,0,0,0,0,0,0,0,0,0,0,0,0,0,0,
0,0,0,0,0,0,0,0,0,0,0,0,0,0,0,0,0,0,0,0,0,0,0,0,0,0,0,0,0,0,0,0,0,0,0,0,0,0,0,0,0,0,0,0,0,0,0,0,0,0,0,0,0,0,0,0,0,0,0,0,0,0,0,0,0,0,0,0,0,0,75,75,0,0,0,0,0,0,0,0,0,0,0,0,
0,0,0,0,0,0,0,0,0,0,0,0,0,0,0,0,0,0,0,0,0,0,0,0,0,0,0,0,0,0,0,0,0,0,0,0,0,0,0,0,0,0,0,0,0,0,0,0,0,0,0,0,0,0,0,0,0,0,0,0,0,0,0,0,0,0,0,0,0,0,0,0,0,0,0,0,0,0,0,0,0,81,81,0,
0,0,0,0,0,0,0,0,0,0,0,0,0,0,0,0,0,0,0,0,0,0,0,0,0,0,0,0,0,0,0,0,0,0,0,0,0,0,0,0,0,0,0,0,0,0,0,0,0,0,0,0,0,0,0,0,0,0,0,0,0,0,0,0,0,0,0,0,0,0,0,0,0,0,0,0,0,0,0,0,0,0,0,0,
0,0,0,0,0,0,0,0,0,0,0,0,0,0,0,0,0,0,0,0,0,0,0,0,0,0,0,0,0,0,0,0,0,0,0,0,0,0,0,0,0,0,0,0,0,0,0,0,0,0,0,0,0,0,0,0,0,0,0,0,0,0,0,0,0,0,0,0,0,0,0,0,81,81,81,81,0,0,0,0,0,0,0,0,
0,0,0,0,0,0,0,0,0,0,0,0,0,0,0,0,0,0,0,0,0,0,0,0,0,0,0,0,0,0,0,8,0,0,0,0,0,0,0,0,0,0,0,0,0,0,0,0,0,0,0,0,0,0,0,0,0,0,0,0,0,0,0,0,0,0,0,0,0,0,0,0,0,0,0,0,0,0,0,0,0,0,0,0,
0,0,0,0,0,0,0,0,0,0,0,0,0,0,0,59,0,0,0,0,0,0,0,0,0,0,0,0,0,0,0,15,0,0,0,0,59,0,0,0,0,0,0,0,0,0,0,0,0,0,0,0,0,0,0,0,0,0,0,0,0,0,0,0,0,0,0,0,0,0,0,0,0,0,0,0,0,0,0,0,0,0,0,0,
0,0,0,0,0,0,0,0,0,0,0,0,0,0,0,0,0,0,0,0,0,0,0,0,0,0,0,0,0,0,0,0,0,0,0,0,0,0,26,0,0,0,0,0,0,0,0,16,0,0,0,0,0,0,0,0,0,0,0,0,0,0,0,0,0,0,0,0,0,0,0,0,0,0,0,0,0,0,0,0,0,0,0,0,
0,0,0,0,0,0,26,26,26,26,0,0,0,0,0,0,0,0,0,0,0,0,0,0,0,0,0,0,26,0,0,0,0,18,0,18,0,0,26,26,26,0,0,0,0,0,0,0,0,0,0,0,0,0,0,0,0,0,0,0,0,0,33,16,0,0,0,0,0,0,0,0,0,0,36,37,0,0,0,0,0,0,0,0,
0,0,0,0,0,0,0,26,26,0,0,0,0,0,0,0,0,0,0,0,0,0,0,0,0,0,0,26,26,0,0,0,0,0,0,0,0,0,26,26,26,26,0,0,0,0,0,0,0,0,0,0,0,0,0,0,0,0,0,0,0,0,16,0,0,0,0,0,0,0,0,0,0,0,43,44,0,0,0,0,0,0,0,0,
0,0,0,0,0,0,0,0,0,0,0,0,0,0,0,0,0,0,0,0,0,0,0,0,0,0,0,26,0,0,0,0,0,0,0,0,0,0,0,0,0,0,0,0,0,0,0,0,0,26,26,0,0,0,0,0,0,0,0,0,0,0,0,0,0,0,0,0,0,0,0,0,0,0,50,51,0,0,0,0,0,0,8,0,
0,0,0,0,0,0,0,0,0,0,0,0,0,0,0,0,0,0,0,0,0,0,0,0,0,0,0,26,0,0,0,0,0,0,0,0,0,0,0,0,0,0,0,0,0,0,0,0,0,0,26,0,0,0,0,0,0,0,0,0,0,0,0,0,0,0,0,0,0,0,0,0,0,0,26,26,0,0,0,0,0,0,15,0,
0,26,0,0,0,0,0,0,0,0,0,0,0,0,0,0,0,0,0,0,0,0,0,0,0,0,0,0,0,0,0,0,0,0,0,0,0,0,0,26,26,0,0,0,0,18,0,0,0,0,0,0,0,0,0,0,0,0,0,0,0,0,0,0,0,0,0,0,0,0,0,0,17,0,0,0,0,18,0,0,0,0,0,0,
0,26,0,0,0,0,0,0,0,0,0,0,0,0,0,0,0,0,0,0,0,0,0,0,0,0,0,0,0,0,0,0,0,0,0,0,0,0,0,0,0,0,0,0,0,23,0,0,0,0,0,0,0,0,0,0,0,0,0,0,0,0,0,0,0,0,0,0,0,0,0,0,23,0,0,0,0,25,0,0,0,0,0,0,
0,0,0,0,0,0,0,0,0,0,0,0,0,0,0,0,0,0,0,0,0,0,0,0,0,0,0,0,0,0,0,17,45,17,0,0,0,0,0,0,0,0,0,0,0,30,0,0,0,0,0,0,0,0,0,0,0,0,0,0,0,0,0,0,0,0,0,0,0,0,0,0,30,0,0,45,0,32,0,59,0,0,0,0,
36,37,0,0,0,0,0,0,0,0,0,0,0,0,0,0,0,0,0,0,0,0,0,0,0,0,0,0,0,0,0,0,0,0,0,0,0,0,0,0,0,0,0,0,0,17,0,0,0,0,0,0,0,0,0,0,0,0,0,0,0,0,0,0,0,0,0,0,0,0,0,0,0,0,0,0,0,0,0,0,0,26,26,0,
43,44,0,0,0,0,0,0,0,0,0,0,0,0,0,0,0,0,0,0,0,0,0,0,0,0,0,0,0,0,0,0,0,0,0,0,0,0,0,0,0,0,0,0,0,0,0,45,0,0,0,0,0,0,0,0,0,0,0,0,0,0,0,0,0,0,0,0,0,0,0,0,59,0,0,0,0,0,0,0,0,26,26,0,
50,51,0,8,0,0,0,0,0,0,0,0,0,0,0,0,0,0,0,0,0,0,0,0,0,0,0,0,0,0,0,0,0,0,0,0,0,0,0,26,0,0,0,0,0,0,0,0,0,0,0,0,0,0,0,0,0,0,0,0,0,0,0,0,0,0,0,0,0,0,0,0,0,0,0,0,0,0,0,0,0,0,0,0,
26,26,0,15,0,0,0,0,0,0,0,0,0,0,0,0,0,0,0,0,0,0,0,0,0,0,0,0,0,0,0,0,0,0,0,0,0,0,0,0,0,0,0,0,0,0,0,0,0,0,0,0,0,0,0,0,0,0,0,0,0,0,0,0,0,0,0,0,0,0,0,0,0,0,0,0,26,26,26,0,0,0,0,0,
0,0,0,0,0,0,0,0,0,0,0,0,0,0,0,19,0,18,0,0,0,0,0,0,0,0,0,0,0,0,0,0,0,0,0,0,0,0,0,0,0,0,0,0,0,0,0,0,0,0,0,0,0,0,0,0,0,0,0,0,0,0,0,0,0,0,0,0,26,0,0,0,26,0,0,0,26,26,0,0,0,0,0,0,
0,1610612758,1610612765,33,0,0,0,26,26,0,0,0,0,0,0,23,0,25,0,0,0,0,0,0,0,0,0,0,0,0,0,0,0,0,0,0,0,0,0,0,0,0,0,0,0,0,0,0,0,0,0,0,0,0,0,0,0,0,0,0,0,0,0,0,0,0,0,0,26,0,0,0,26,26,0,0,0,26,0,0,0,0,0,0,
0,1610612758,1610612765,2684354593,0,0,0,0,0,0,0,0,0,0,0,30,0,32,0,0,0,0,0,0,0,0,0,0,0,0,0,0,0,0,0,0,0,0,0,0,0,0,0,0,0,0,0,0,0,0,0,0,0,26,26,0,0,0,0,0,0,0,0,0,0,0,0,0,0,0,0,0,26,26,0,0,0,0,0,0,0,0,0,59,
0,1610612758,1610612765,0,0,0,0,0,0,0,0,0,0,0,0,0,0,0,0,0,0,0,0,0,0,0,0,0,0,0,0,0,0,0,0,0,0,0,0,0,0,0,0,0,0,0,0,0,0,0,0,0,0,26,26,0,0,0,0,0,0,0,0,0,0,0,0,0,0,0,0,0,0,0,0,0,0,0,0,0,0,0,0,0,
0,1610612758,1610612765,0,0,0,0,0,0,0,0,0,0,0,0,0,0,0,0,0,0,0,0,0,0,0,0,0,0,0,0,0,0,0,0,0,0,0,0,0,0,0,0,0,0,0,0,0,0,0,0,0,26,26,26,0,0,0,0,0,0,0,0,0,0,0,8,0,0,0,0,0,0,0,45,0,0,0,19,0,0,0,0,0,
0,0,0,0,0,0,0,0,0,0,0,45,0,0,0,0,0,0,0,0,0,0,0,0,0,0,0,0,0,0,0,0,0,0,0,0,0,0,0,0,0,0,0,0,0,0,0,0,0,0,0,0,26,26,0,0,0,0,0,0,0,0,0,0,0,0,15,0,0,0,0,59,0,0,0,0,0,0,33,0,0,19,0,0,
0,45,0,0,0,0,0,0,0,0,0,17,0,0,0,0,0,0,0,26,0,0,0,0,0,0,0,0,0,0,0,0,0,0,0,0,0,0,0,0,0,0,0,0,0,0,0,0,0,0,0,0,26,26,0,0,0,0,0,0,0,0,0,0,0,0,0,0,0,0,0,0,0,0,0,19,0,0,0,0,0,0,0,0,
0,0,0,0,0,0,0,0,0,0,26,24,26,0,0,0,0,0,0,26,0,0,0,0,0,0,0,0,0,0,0,0,0,0,0,0,0,0,0,0,0,0,0,0,0,0,0,0,0,0,0,0,0,0,0,0,0,0,0,0,0,0,0,0,0,0,0,0,0,0,0,0,0,0,0,0,0,0,0,45,0,0,0,0,
0,0,0,0,0,0,0,0,0,0,26,31,26,0,0,0,0,0,0,2684354593,0,0,0,0,0,0,0,0,0,0,0,0,0,0,0,0,0,0,0,0,0,0,0,0,0,0,0,0,0,0,16,0,0,0,0,0,0,0,0,0,0,0,0,0,0,0,0,0,0,0,0,0,0,0,0,0,0,0,0,0,0,0,0,0,
59,0,0,26,26,0,0,0,0,0,26,26,26,0,0,0,0,52,0,0,0,0,0,0,0,0,0,0,0,0,0,0,0,0,0,0,0,0,0,0,0,0,0,0,0,0,0,0,0,0,0,0,0,0,0,0,0,0,0,0,0,0,0,0,0,0,0,0,0,0,0,0,0,0,0,0,0,0,0,0,0,0,0,0,
0,0,0,26,26,0,0,8,0,0,0,0,0,0,0,0,18,0,0,0,0,0,0,0,0,0,0,0,0,0,0,0,0,0,0,0,0,0,0,0,0,0,0,0,0,0,0,0,0,0,0,0,0,0,0,0,0,0,0,0,0,0,0,0,0,0,0,0,0,0,0,0,0,0,0,0,0,0,0,0,0,0,0,0,
0,0,26,26,26,0,0,15,0,0,0,0,0,0,52,0,0,0,0,0,0,0,0,0,0,0,0,0,0,0,0,0,0,0,0,0,0,0,0,0,0,0,0,0,0,0,19,0,0,0,0,0,0,0,0,0,0,0,0,0,0,0,0,0,0,0,0,0,0,0,0,0,0,0,0,0,0,0,0,0,0,0,0,0,
0,0,26,26,0,0,0,0,0,0,0,0,0,18,0,0,0,0,59,0,0,0,0,0,0,0,0,0,0,0,0,0,0,0,0,0,0,0,0,0,0,0,0,0,0,0,24,0,0,19,0,0,0,0,0,0,0,0,0,0,0,0,0,0,0,0,0,0,0,0,0,0,0,0,0,0,0,0,0,0,0,0,0,0,
0,0,0,0,0,0,0,0,0,0,0,0,0,0,0,0,18,0,0,0,0,0,0,0,0,0,0,0,0,0,0,0,0,0,0,0,0,0,0,0,0,0,0,0,0,0,31,0,0,24,0,0,0,0,0,0,0,0,0,0,0,0,0,0,0,0,0,0,0,0,0,0,0,0,0,0,0,0,0,0,0,0,0,0,
0,0,0,0,0,0,0,0,0,0,0,0,0,0,0,52,0,0,0,0,0,0,0,0,0,0,0,0,0,0,0,0,0,0,0,0,0,0,0,0,0,0,0,0,0,0,0,0,0,31,0,0,0,0,0,0,0,0,0,0,0,0,0,0,0,0,0,0,0,0,0,0,0,0,0,0,0,0,0,0,0,0,0,0,
0,0,0,0,0,0,0,0,0,0,0,0,0,0,0,0,0,0,0,0,0,0,0,0,0,0,0,0,0,0,0,0,0,0,0,0,0,0,0,0,0,0,0,0,0,0,0,0,0,0,0,0,0,0,0,0,0,0,0,0,0,0,0,0,0,0,0,0,0,0,0,0,0,0,0,0,0,0,0,0,0,0,0,0
</data>
 </layer>
 <layer id="15" name="additional_objects" width="84" height="52">
  <data encoding="csv">
0,0,0,0,0,0,0,0,0,0,0,0,0,0,0,0,0,0,0,0,0,0,0,0,0,0,0,0,0,0,0,0,0,0,0,0,0,0,0,0,0,0,0,0,0,0,0,0,0,0,0,0,0,0,0,0,0,0,0,0,0,0,0,0,0,0,0,0,0,0,0,0,0,0,0,0,0,0,0,0,0,0,0,0,
0,0,0,0,0,0,0,0,0,0,0,0,0,0,0,0,0,0,0,0,0,0,0,0,0,0,0,0,0,0,0,0,0,0,0,0,0,0,0,0,0,0,0,0,0,0,0,0,0,0,0,0,0,0,0,0,0,0,0,0,0,0,0,0,0,0,0,0,0,0,0,0,0,0,0,0,0,0,0,0,0,0,0,0,
0,0,0,0,0,0,0,0,0,0,0,0,0,0,0,0,0,0,0,0,0,0,0,0,0,0,0,0,0,0,0,0,0,0,0,0,0,0,0,0,0,0,0,0,0,0,0,0,0,0,0,0,0,0,0,0,0,0,0,0,0,0,0,0,0,0,0,0,0,0,0,0,0,0,0,0,0,0,0,0,0,0,0,0,
0,0,0,0,0,0,0,0,0,0,0,0,0,0,0,0,0,0,0,0,0,0,0,0,0,0,0,0,0,0,0,0,0,0,0,0,0,0,0,0,0,0,0,0,0,0,0,0,0,0,0,0,0,0,0,0,0,0,0,0,0,0,0,0,0,0,0,0,0,0,0,0,0,0,0,0,0,0,0,0,0,0,0,0,
0,0,0,0,0,0,0,0,0,0,0,0,0,0,0,0,0,0,0,0,0,0,0,0,0,0,0,0,0,0,0,0,0,0,0,0,0,0,0,0,0,0,0,0,0,0,0,0,0,0,0,0,0,0,0,0,0,0,0,0,0,0,0,0,0,0,0,0,0,0,0,0,0,0,0,0,0,0,0,0,0,0,0,0,
0,0,0,0,0,0,0,0,0,0,0,0,0,0,0,0,0,0,0,0,0,0,0,0,0,0,0,0,0,0,0,0,0,0,0,0,0,0,0,0,0,0,0,0,0,0,0,0,0,0,0,0,0,0,0,0,0,0,0,0,0,0,0,0,0,0,0,0,0,0,0,0,0,0,0,0,0,0,0,0,0,0,0,0,
0,0,0,0,0,0,0,0,0,0,0,0,0,0,0,0,0,0,0,0,0,0,0,0,0,0,0,0,0,0,0,0,0,0,0,0,0,0,0,0,0,0,0,0,0,0,0,0,0,0,0,0,0,0,0,0,0,0,0,0,0,0,0,0,0,0,0,0,0,0,0,0,0,0,0,0,0,0,0,0,0,0,0,0,
0,0,0,0,0,33,0,0,0,0,0,0,0,0,0,0,0,0,0,0,0,0,0,0,0,0,0,0,0,0,0,0,0,0,0,0,0,0,0,0,0,0,0,0,0,0,0,0,0,0,0,0,0,0,0,0,0,0,0,0,0,0,0,0,0,0,0,0,0,0,0,0,0,0,0,33,0,0,0,0,0,0,0,0,
0,0,0,0,0,0,0,0,0,0,0,0,0,0,0,0,0,0,0,0,0,0,0,0,0,0,0,0,0,0,0,0,0,0,0,0,0,0,0,0,0,0,0,0,0,0,0,0,0,0,0,0,0,0,0,0,0,0,0,0,0,0,0,0,0,0,0,0,0,0,0,0,0,0,0,0,0,0,0,0,0,0,0,0,
0,0,0,0,0,0,0,0,0,0,0,0,0,0,0,0,0,0,0,0,0,0,0,0,0,0,0,0,0,0,0,0,0,0,0,0,0,0,0,0,0,0,0,0,0,0,0,0,0,0,0,0,0,0,0,0,0,0,0,0,0,0,0,0,0,0,0,0,0,0,0,0,0,0,0,0,0,0,0,0,0,0,0,0,
0,0,0,0,0,0,0,0,0,0,0,0,0,0,0,0,0,0,0,0,0,0,0,0,0,0,0,0,0,0,0,0,0,0,0,0,0,0,0,0,0,0,0,0,0,0,0,0,0,0,0,0,0,0,0,0,0,0,0,0,0,0,0,0,0,0,0,0,0,0,0,0,0,0,0,0,0,0,0,0,0,0,0,0,
0,0,0,0,0,0,0,0,0,0,0,0,0,0,0,0,0,0,0,0,0,0,0,0,0,0,0,0,0,0,0,0,0,0,0,0,0,0,0,0,0,0,0,0,0,0,0,0,0,0,0,0,0,0,0,0,0,0,0,0,0,0,0,0,0,0,0,0,0,0,0,0,0,0,0,0,0,0,0,0,0,0,0,0,
0,0,0,0,0,0,0,0,0,0,0,0,0,0,0,0,0,0,0,0,0,0,0,0,0,0,0,0,0,0,0,0,0,0,0,0,0,0,0,0,0,0,0,0,0,0,0,0,0,0,0,0,0,0,0,0,0,0,0,0,0,0,0,0,0,0,0,0,0,0,0,0,0,0,0,0,0,0,0,0,0,0,0,0,
0,0,0,0,0,0,0,0,0,0,0,0,0,0,0,0,0,0,0,0,0,0,0,0,0,0,0,0,0,0,0,0,0,0,0,0,0,0,0,0,0,0,0,0,0,0,0,0,0,0,0,0,0,0,0,0,0,0,0,0,0,0,0,0,0,0,0,0,0,0,0,0,0,0,0,0,0,0,0,0,0,0,0,0,
0,0,0,0,0,0,0,0,0,0,0,0,0,0,0,0,0,0,0,0,0,0,0,0,0,0,0,0,0,0,0,0,0,0,0,0,0,0,0,0,0,0,0,0,0,0,0,0,0,0,0,0,0,0,0,0,0,0,0,0,0,0,0,0,0,0,0,0,0,0,0,0,0,0,0,0,0,0,0,0,0,0,0,0,
0,0,0,0,0,0,0,0,0,0,0,0,0,0,0,0,0,0,0,0,0,0,0,0,0,0,0,0,0,0,0,0,0,0,0,0,0,0,0,0,0,0,0,0,0,0,0,0,0,0,0,0,0,0,0,0,0,0,0,0,0,0,0,0,0,0,0,0,0,0,0,0,0,0,0,0,0,0,0,0,0,0,0,0,
0,0,0,0,0,0,0,0,0,0,0,0,0,0,0,0,0,0,0,0,0,0,0,0,0,0,0,0,0,0,0,0,0,0,0,0,0,0,0,0,0,0,0,0,0,0,0,0,0,0,0,0,0,0,0,0,0,0,0,0,0,0,0,0,0,0,0,0,0,0,0,0,0,0,0,0,0,0,0,0,0,0,0,0,
0,0,0,0,0,0,0,0,0,0,0,0,0,0,0,0,0,0,0,0,0,0,0,0,0,0,0,0,0,0,0,0,0,0,0,0,0,0,0,0,0,0,0,0,0,0,0,0,0,0,0,0,0,0,0,0,0,0,0,0,0,0,0,0,0,0,0,0,0,0,0,0,0,0,0,0,0,0,0,0,0,0,0,0,
0,0,0,0,0,0,0,0,0,0,0,0,0,0,0,0,0,0,0,0,0,0,0,0,0,0,0,0,0,0,0,0,0,0,0,0,0,0,0,0,0,0,0,0,0,0,0,0,0,0,0,0,0,0,0,0,0,0,0,0,0,0,0,0,0,0,0,0,0,0,0,0,0,0,0,0,0,0,0,0,0,0,0,0,
0,0,0,0,0,0,0,0,0,0,0,0,0,0,0,0,0,0,0,0,0,0,0,0,0,0,0,0,0,0,0,0,0,0,0,0,0,0,0,0,0,0,0,0,0,0,0,0,0,0,0,0,0,0,0,0,0,0,0,0,0,0,0,0,0,0,0,0,0,0,0,0,0,0,0,0,0,0,0,0,0,0,0,0,
0,0,0,0,0,0,0,0,0,0,0,0,0,0,0,0,0,0,0,0,0,0,0,0,0,0,0,0,0,0,0,0,0,0,0,0,0,0,0,0,0,0,0,0,0,0,0,0,0,0,0,0,0,0,0,0,0,0,0,0,0,0,0,0,0,0,0,0,0,0,0,0,0,0,0,0,0,0,0,0,0,0,0,0,
0,0,0,0,0,0,0,0,0,0,0,0,0,0,0,0,0,0,0,0,0,0,0,0,0,0,0,0,0,0,0,0,0,0,0,0,0,0,0,0,0,0,0,0,0,0,0,0,0,0,0,0,0,0,0,0,0,0,0,0,0,0,0,0,0,0,0,0,0,0,0,0,0,0,0,0,0,0,0,0,0,0,0,0,
0,0,0,0,0,0,0,0,0,0,0,0,0,0,0,0,0,0,0,0,0,0,0,0,0,0,0,0,0,0,0,0,0,0,0,0,0,0,0,0,0,0,0,0,0,0,0,0,0,0,0,0,0,0,0,0,0,0,0,0,0,0,0,0,0,0,0,0,0,0,0,0,0,0,0,0,0,0,0,0,0,0,0,0,
0,0,0,0,0,0,0,0,0,0,0,0,0,0,0,0,0,0,0,0,0,0,0,0,0,0,0,0,0,0,0,0,0,0,0,0,0,0,0,0,0,0,0,0,0,0,0,0,0,0,0,0,0,0,0,0,0,0,0,0,0,0,0,0,0,0,0,0,0,0,0,0,0,0,0,0,0,0,0,0,0,0,0,0,
0,0,0,0,0,0,0,0,0,0,0,0,0,0,0,0,0,0,0,0,0,0,0,0,0,0,0,0,0,0,0,0,0,0,0,0,0,0,0,0,0,0,0,0,0,0,0,0,0,0,0,0,0,0,0,0,0,0,0,0,0,0,0,0,0,0,0,0,0,0,0,0,0,0,0,0,0,0,0,0,0,0,0,0,
0,0,0,0,0,0,0,0,0,0,0,0,0,0,0,0,0,0,0,0,0,0,0,0,0,0,0,0,0,0,0,0,0,0,0,0,0,0,0,0,0,0,0,0,0,0,0,0,0,0,0,0,0,0,0,0,0,0,0,0,0,0,0,0,0,0,0,0,0,0,0,0,0,0,0,0,0,0,0,0,0,0,0,0,
0,0,0,0,0,0,0,0,0,0,0,0,0,0,0,0,0,0,0,0,0,0,0,0,0,0,0,0,0,0,0,0,0,0,0,0,0,0,0,0,0,0,0,0,0,0,0,0,0,0,0,0,0,0,0,0,0,0,0,0,0,0,0,0,0,0,0,0,0,0,0,0,0,0,0,0,0,0,0,0,0,0,0,0,
0,0,0,0,0,0,0,0,0,0,0,0,0,0,0,0,0,0,0,0,0,0,0,0,0,0,0,0,0,0,0,0,0,0,0,0,0,0,0,0,0,0,0,0,0,0,0,0,0,0,0,0,0,0,0,0,0,0,0,0,0,0,0,0,0,0,0,0,0,0,0,0,0,0,0,0,0,0,0,0,0,0,0,0,
0,0,0,0,0,0,0,0,0,0,0,0,0,0,0,0,0,0,0,0,0,0,0,0,0,0,0,0,0,0,0,0,0,0,0,0,0,0,0,0,0,0,0,0,0,0,0,0,0,0,0,0,0,0,0,0,0,0,0,0,0,0,0,0,0,0,0,0,0,0,0,0,0,0,0,0,0,0,0,0,0,0,0,0,
0,0,0,0,0,0,0,0,0,0,0,0,0,0,0,0,0,0,0,0,0,0,0,0,0,0,0,0,0,0,0,0,0,0,0,0,0,0,0,0,0,0,0,0,0,0,0,0,0,0,0,0,0,0,0,0,0,0,0,0,0,0,0,0,0,0,0,0,0,0,0,0,0,0,0,0,0,0,0,0,0,0,0,0,
0,0,0,0,0,0,0,0,0,0,0,0,0,0,0,0,0,0,0,0,0,0,0,0,0,0,0,0,0,0,0,0,0,0,0,0,0,0,0,0,0,0,0,0,0,0,0,0,0,0,0,0,0,0,0,0,0,0,0,0,0,0,0,0,0,0,0,0,0,0,0,0,0,0,0,0,0,33,0,0,0,0,0,0,
0,0,0,0,0,0,0,0,0,0,0,0,0,0,0,0,0,0,0,0,0,0,0,0,0,0,0,0,0,0,0,0,0,0,0,0,0,0,0,0,0,0,0,0,0,0,0,0,0,0,0,0,0,0,0,0,0,0,0,0,0,0,0,0,0,0,0,0,0,0,0,0,0,0,0,0,0,0,0,0,0,0,0,0,
0,0,0,0,0,0,0,0,0,0,0,0,0,0,0,0,0,0,0,0,0,0,0,0,0,0,0,0,0,0,0,0,0,0,0,0,0,0,0,0,0,0,0,0,0,0,0,0,0,0,0,0,0,0,0,0,0,0,0,0,0,0,0,0,0,0,0,0,0,0,0,0,0,0,0,0,0,0,0,0,0,0,0,0,
0,0,0,0,0,0,0,0,0,0,0,0,0,0,0,0,0,0,0,0,0,0,0,0,0,0,0,0,0,0,0,0,0,0,0,0,0,0,0,0,0,0,0,0,0,0,0,0,0,0,0,0,0,0,0,0,0,0,0,0,0,0,0,0,0,0,0,0,0,0,0,0,0,0,0,0,0,0,0,0,0,0,0,0,
0,0,0,0,0,0,0,0,0,0,0,0,0,0,0,0,0,0,0,0,0,0,0,0,0,0,0,0,0,0,0,0,0,0,0,0,0,0,0,0,0,0,0,0,0,0,0,0,0,0,0,0,0,0,0,0,0,0,0,0,0,0,0,0,0,0,0,0,0,0,0,0,0,0,0,0,0,0,0,0,0,0,0,0,
0,0,0,0,0,0,0,0,0,0,0,0,0,0,0,0,0,0,0,0,0,0,0,0,0,0,0,0,0,0,0,0,0,0,0,0,0,0,0,0,0,0,0,0,0,0,0,0,0,0,0,0,0,0,0,0,0,0,0,0,0,0,0,0,0,0,0,0,0,0,0,0,0,0,0,0,0,0,0,0,0,0,0,0,
0,0,0,0,0,0,0,0,0,0,0,0,0,0,0,0,0,0,0,0,0,0,0,0,0,0,0,0,0,0,0,0,0,0,0,0,0,0,0,0,0,0,0,0,0,0,0,0,0,0,0,0,0,0,0,0,0,0,0,0,0,0,0,0,0,0,0,0,0,0,0,0,0,0,0,0,0,0,0,0,0,0,0,0,
0,0,0,0,0,0,0,0,0,0,0,0,0,0,0,0,0,33,0,0,0,0,0,0,0,0,0,0,0,0,0,0,0,0,0,0,0,0,0,0,0,0,0,0,0,0,0,0,0,0,0,0,0,0,0,0,0,0,0,0,0,0,0,0,0,0,0,0,0,0,0,0,0,0,0,0,0,0,0,0,0,0,0,0,
0,0,0,0,0,0,0,0,0,0,0,0,0,0,0,0,0,0,0,0,0,0,0,0,0,0,0,0,0,0,0,0,0,0,0,0,0,0,0,0,0,0,0,0,0,0,0,0,0,0,0,0,0,0,0,0,0,0,0,0,0,0,0,0,0,0,0,0,0,0,0,0,0,0,0,0,0,0,0,0,0,0,0,0,
0,0,0,0,0,0,0,0,0,0,0,0,0,0,0,0,0,0,0,0,0,0,0,0,0,0,0,0,0,0,0,0,0,0,0,0,0,0,0,0,0,0,0,0,0,0,0,0,0,0,0,0,0,0,0,0,0,0,0,0,0,0,0,0,0,0,0,0,0,0,0,0,0,0,0,0,0,0,0,0,0,0,0,0,
0,0,0,0,0,0,0,0,0,0,0,0,0,0,0,0,0,0,0,0,0,0,0,0,0,0,0,0,0,0,0,0,0,0,0,0,0,0,0,0,0,0,0,0,0,0,0,0,0,0,0,0,0,0,0,0,0,0,0,0,0,0,0,0,0,0,0,0,0,0,0,0,0,0,0,0,0,0,0,0,0,0,0,0,
0,0,0,0,0,0,0,0,0,0,0,0,0,0,0,0,0,0,0,0,0,0,0,0,0,0,0,0,0,0,0,0,0,0,0,0,0,0,0,0,0,0,0,0,0,0,0,0,0,0,0,0,0,0,0,0,0,0,0,0,0,0,0,0,0,0,0,0,0,0,0,0,0,0,0,0,0,0,0,0,0,0,0,0,
0,0,0,0,0,0,0,0,0,0,0,0,0,0,0,0,0,0,0,0,0,0,0,0,0,0,0,0,0,0,0,0,0,0,0,0,0,0,0,0,0,0,0,0,0,0,0,0,0,0,0,0,0,0,0,0,0,0,0,0,0,0,0,0,0,0,0,0,0,0,0,0,0,0,0,0,0,0,0,0,0,0,0,0,
0,0,0,0,0,0,0,0,0,0,0,0,0,0,0,0,0,0,0,0,0,0,0,0,0,0,0,0,0,0,0,0,0,0,0,0,0,0,0,0,0,0,0,0,0,0,0,0,0,0,0,0,0,0,0,0,0,0,0,0,0,0,0,0,0,0,0,0,0,0,0,0,0,0,0,0,0,0,0,0,0,0,0,0,
0,0,0,0,0,0,0,0,0,0,0,0,0,0,0,0,0,0,0,0,0,0,0,0,0,0,0,0,0,0,0,0,0,0,0,0,0,0,0,0,0,0,0,0,0,0,0,0,0,0,0,0,0,0,0,0,0,0,0,0,0,0,0,0,0,0,0,0,0,0,0,0,0,0,0,0,0,0,0,0,0,0,0,0,
0,0,0,0,0,0,0,0,0,0,0,0,0,0,0,0,0,0,0,0,0,0,0,0,0,0,0,0,0,0,0,0,0,0,0,0,0,0,0,0,0,0,0,0,0,0,0,0,0,0,0,0,0,0,0,0,0,0,0,0,0,0,0,0,0,0,0,0,0,0,0,0,0,0,0,0,0,0,0,0,0,0,0,0,
0,0,0,0,0,0,0,0,0,0,0,0,0,0,0,0,0,0,0,0,0,0,0,0,0,0,0,0,0,0,0,0,0,0,0,0,0,0,0,0,0,0,0,0,0,0,0,0,0,0,0,0,0,0,0,0,0,0,0,0,0,0,0,0,0,0,0,0,0,0,0,0,0,0,0,0,0,0,0,0,0,0,0,0,
0,0,0,0,0,0,0,0,0,0,0,0,0,0,0,0,0,0,0,0,0,0,0,0,0,0,0,0,0,0,0,0,0,0,0,0,0,0,0,0,0,0,0,0,0,0,0,0,0,0,0,0,0,0,0,0,0,0,0,0,0,0,0,0,0,0,0,0,0,0,0,0,0,0,0,0,0,0,0,0,0,0,0,0,
0,0,0,0,0,0,0,0,0,0,0,0,0,0,0,0,0,0,0,0,0,0,0,0,0,0,0,0,0,0,0,0,0,0,0,0,0,0,0,0,0,0,0,0,0,0,0,0,0,0,0,0,0,0,0,0,0,0,0,0,0,0,0,0,0,0,0,0,0,0,0,0,0,0,0,0,0,0,0,0,0,0,0,0,
0,0,0,0,0,0,0,0,0,0,0,0,0,0,0,0,0,0,0,0,0,0,0,0,0,0,0,0,0,0,0,0,0,0,0,0,0,0,0,0,0,0,0,0,0,0,0,0,0,0,0,0,0,0,0,0,0,0,0,0,0,0,0,0,0,0,0,0,0,0,0,0,0,0,0,0,0,0,0,0,0,0,0,0,
0,0,0,0,0,0,0,0,0,0,0,0,0,0,0,0,0,0,0,0,0,0,0,0,0,0,0,0,0,0,0,0,0,0,0,0,0,0,0,0,0,0,0,0,0,0,0,0,0,0,0,0,0,0,0,0,0,0,0,0,0,0,0,0,0,0,0,0,0,0,0,0,0,0,0,0,0,0,0,0,0,0,0,0,
0,0,0,0,0,0,0,0,0,0,0,0,0,0,0,0,0,0,0,0,0,0,0,0,0,0,0,0,0,0,0,0,0,0,0,0,0,0,0,0,0,0,0,0,0,0,0,0,0,0,0,0,0,0,0,0,0,0,0,0,0,0,0,0,0,0,0,0,0,0,0,0,0,0,0,0,0,0,0,0,0,0,0,0
</data>
 </layer>
 <objectgroup id="14" name="collisions">
  <object id="30" x="143" y="307.5" width="41.5" height="31.5">
   <ellipse/>
  </object>
  <object id="32" x="720.159" y="209.25" width="38.2273" height="34.5">
   <ellipse/>
  </object>
  <object id="33" x="143.75" y="1701" width="41.5" height="31.5">
   <ellipse/>
  </object>
  <object id="34" x="335.25" y="2276.92" width="41.5" height="31.5">
   <ellipse/>
  </object>
  <object id="35" x="1486.5" y="1124.25" width="41.5" height="31.5">
   <ellipse/>
  </object>
  <object id="36" x="3166.92" y="1989.58" width="41.5" height="31.5">
   <ellipse/>
  </object>
  <object id="37" x="3935.92" y="1364.92" width="41.5" height="31.5">
   <ellipse/>
  </object>
  <object id="38" x="3598.96" y="118.542" width="41.5" height="31.5">
   <ellipse/>
  </object>
  <object id="39" x="1872.25" y="597.583" width="40.1667" height="31.5">
   <ellipse/>
  </object>
  <object id="40" x="623.818" y="54.7273" width="46.7273" height="41.0909">
   <ellipse/>
  </object>
  <object id="42" x="2400.14" y="2119.2" width="46.7273" height="41.0909">
   <ellipse/>
  </object>
  <object id="43" x="3023.97" y="1206.12" width="46.7273" height="41.0909">
   <ellipse/>
  </object>
  <object id="44" x="2975.64" y="1253.79" width="46.7273" height="41.0909">
   <ellipse/>
  </object>
  <object id="45" x="2256.3" y="1158.79" width="46.7273" height="41.0909">
   <ellipse/>
  </object>
  <object id="46" x="2639.36" y="247.273" width="46.7273" height="41.0909">
   <ellipse/>
  </object>
  <object id="47" x="3983.3" y="438.788" width="46.7273" height="41.0909">
   <ellipse/>
  </object>
  <object id="66" x="340.75" y="305.125" width="38.25" height="31.25"/>
  <object id="67" x="432" y="64.125" width="44" height="31.25"/>
  <object id="68" x="243.375" y="304.125" width="38.25" height="31.25"/>
  <object id="69" x="1251.88" y="256.708" width="38.25" height="31.25"/>
  <object id="70" x="2594.88" y="400.875" width="38.25" height="31.25"/>
  <object id="71" x="3603.87" y="307.375" width="38.25" height="31.25"/>
  <object id="72" x="3747.88" y="307.375" width="38.25" height="31.25"/>
  <object id="73" x="3603.88" y="2032.04" width="38.25" height="31.25"/>
  <object id="74" x="3747.38" y="1936.88" width="38.25" height="31.25"/>
  <object id="75" x="3891.38" y="1984.88" width="38.25" height="31.25"/>
  <object id="76" x="2354.88" y="2320.37" width="38.25" height="31.25"/>
  <object id="77" x="2210.88" y="2272.71" width="38.25" height="31.25"/>
  <object id="78" x="722.875" y="1743.38" width="38.25" height="31.25"/>
  <object id="79" x="3700.38" y="1408.38" width="38.25" height="31.25"/>
  <object id="80" x="2165.54" y="1408.71" width="38.25" height="31.25"/>
  <object id="81" x="1685.38" y="1216.38" width="38.25" height="31.25"/>
  <object id="82" x="1589.38" y="1216.88" width="38.25" height="31.25"/>
  <object id="83" x="821.208" y="1744.38" width="38.25" height="31.25"/>
  <object id="84" x="773.875" y="2225.38" width="38.25" height="31.25"/>
  <object id="85" x="772.875" y="2369.38" width="38.25" height="31.25"/>
  <object id="86" x="629.375" y="2321.38" width="38.25" height="31.25"/>
  <object id="87" x="2112.5" y="479.909" width="46.5" height="48.5909"/>
  <object id="88" x="2208.75" y="432.371" width="46.5" height="48.5909"/>
  <object id="89" x="3456.75" y="1392.37" width="46.5" height="48.5909"/>
  <object id="90" x="528.75" y="2015.7" width="46.5" height="48.5909"/>
  <object id="91" x="1584.5" y="1487.7" width="46.5" height="48.5909"/>
  <object id="92" x="1489" y="1487.7" width="46.5" height="48.5909"/>
  <object id="94" x="46.6667" y="785" width="337.667" height="30"/>
  <object id="95" x="384.667" y="760.667" width="46" height="54.6667"/>
  <object id="96" x="0.454545" y="761.151" width="46" height="54.6667"/>
  <object id="97" x="529.333" y="377" width="46" height="54.6667"/>
  <object id="98" x="721" y="376.667" width="46" height="54.6667"/>
  <object id="99" x="721.5" y="41.1667" width="46" height="54.6667"/>
  <object id="100" x="2113" y="617.333" width="46" height="54.6667"/>
  <object id="101" x="2305.67" y="616.667" width="46" height="54.6667"/>
  <object id="102" x="2497" y="617.667" width="46" height="54.6667"/>
  <object id="103" x="2017.5" y="137.167" width="46" height="54.6667"/>
  <object id="104" x="2305.5" y="136.167" width="46" height="54.6667"/>
  <object id="105" x="2497" y="136.667" width="46" height="54.6667"/>
  <object id="106" x="2641" y="137.167" width="46" height="54.6667"/>
  <object id="107" x="3985.67" y="40.3333" width="46" height="54.6667"/>
  <object id="108" x="3649.5" y="1288.67" width="46.5" height="54.6667"/>
  <object id="109" x="3264.59" y="1672.48" width="46" height="54.6667"/>
  <object id="110" x="3264.67" y="1866.67" width="46" height="54.6667"/>
  <object id="111" x="3457.33" y="2104" width="46" height="54.6667"/>
  <object id="112" x="3985" y="2438.67" width="46" height="54.6667"/>
  <object id="113" x="864.333" y="2440" width="46" height="54.6667"/>
  <object id="114" x="1.66667" y="2438.67" width="46" height="54.6667"/>
  <object id="115" x="193.5" y="1625.17" width="46" height="54.6667"/>
  <object id="116" x="1.33333" y="41.6666" width="46" height="54.6667"/>
  <object id="117" x="1824.67" y="1049.33" width="46" height="54.6667"/>
  <object id="118" x="2113" y="1049.33" width="46" height="54.6667"/>
  <object id="119" x="2305" y="1049.33" width="46" height="54.6667"/>
  <object id="120" x="2305.67" y="1432.33" width="46" height="54.6667"/>
  <object id="121" x="2305" y="1624" width="46" height="54.6667"/>
  <object id="122" x="1921.67" y="1626" width="46" height="54.6667"/>
  <object id="123" x="1825" y="1622.67" width="46" height="54.6667"/>
  <object id="124" x="1393.67" y="1625.33" width="46" height="54.6667"/>
  <object id="125" x="1440.67" y="1049" width="46" height="54.6667"/>
  <object id="126" x="720.333" y="1577.67" width="46" height="54.6667"/>
  <object id="127" x="864.333" y="1576.33" width="46" height="54.6667"/>
  <object id="128" x="3696.75" y="520.417" width="46" height="54.6667"/>
  <object id="129" x="3889" y="521.417" width="46" height="54.6667"/>
  <object id="130" x="575.167" y="401" width="146.167" height="30"/>
  <object id="131" x="2064.17" y="161" width="240.667" height="30"/>
  <object id="132" x="2543.5" y="160.667" width="97.667" height="30"/>
  <object id="133" x="2159.67" y="642.5" width="145.667" height="30"/>
  <object id="134" x="1486.83" y="1073.67" width="337.667" height="30"/>
  <object id="135" x="1442.5" y="1648.33" width="381.667" height="30"/>
  <object id="136" x="1968.17" y="1649.33" width="337.667" height="30"/>
  <object id="137" x="3071.83" y="2129" width="383.667" height="30"/>
  <object id="138" x="3505.17" y="2128.33" width="95.0003" height="30"/>
  <object id="139" x="3697.17" y="1313.5" width="325.167" height="30"/>
  <object id="140" x="767.166" y="1601.67" width="97.0003" height="30"/>
  <object id="141" x="94.4998" y="1649.67" width="99.667" height="25.3333"/>
  <object id="142" x="-1" y="1615" width="96" height="63.5"/>
  <object id="143" x="757.75" y="96" width="10" height="281.083"/>
  <object id="145" x="2112.5" y="672.375" width="10" height="95.5"/>
  <object id="146" x="2533.67" y="672.458" width="10" height="95.75"/>
  <object id="147" x="2342" y="1104.13" width="10" height="144.417"/>
  <object id="148" x="2342.33" y="1487.46" width="8.66667" height="135.75"/>
  <object id="149" x="1392.5" y="1488.63" width="10" height="191.75"/>
  <object id="150" x="1440" y="1104.46" width="10" height="95.0833"/>
  <object id="151" x="2678.33" y="192.125" width="10" height="96.0833"/>
  <object id="152" x="2016.5" y="192.125" width="10" height="143.25"/>
  <object id="153" x="902.5" y="1632.13" width="10" height="335.417"/>
  <object id="154" x="901.333" y="2159.79" width="10" height="280.417"/>
  <object id="155" x="3301.91" y="1536.06" width="10" height="136.841"/>
  <object id="156" x="3302.14" y="1920.63" width="10" height="95.25"/>
  <object id="157" x="0.333333" y="96.7917" width="10" height="2398.75"/>
  <object id="158" x="4021.92" y="0.625" width="10" height="2493.75"/>
  <object id="159" x="48.8332" y="2465" width="814.667" height="30"/>
  <object id="160" x="910" y="2465" width="3073.85" height="30"/>
  <object id="161" x="48.1665" y="0" width="3984" height="45.5"/>
  <object id="162" x="3792" y="127.917" width="96" height="63.5"/>
  <object id="163" x="2351.83" y="1457.67" width="96.3337" height="30"/>
  <object id="164" x="2160.17" y="1073" width="144.667" height="30"/>
  <object id="165" x="3553.33" y="1280.25" width="96" height="63.5"/>
 </objectgroup>
 <objectgroup id="17" name="collisions_hole">
  <object id="22" x="240.182" y="335.818" width="47.6364" height="96.3636"/>
  <object id="24" x="816.636" y="1776.05" width="47.6364" height="96.3636"/>
  <object id="25" x="2592.18" y="432.568" width="47.6364" height="95.6136"/>
  <object id="26" x="3601.18" y="338.485" width="45.6364" height="92.6969"/>
  <object id="27" x="3745.18" y="338.939" width="46.1819" height="91.606"/>
  <object id="28" x="3697.43" y="1442.57" width="46.1364" height="92.3636"/>
  <object id="48" x="336" y="336.364" width="48.1818" height="96"/>
  <object id="49" x="431.909" y="96" width="48.1818" height="96"/>
  <object id="50" x="719.909" y="1775.5" width="48.1818" height="96"/>
  <object id="51" x="528.409" y="2064" width="48.1818" height="96"/>
  <object id="52" x="2158.41" y="1440.5" width="48.1818" height="96"/>
  <object id="53" x="2352.41" y="2352.5" width="48.1818" height="96"/>
  <object id="54" x="2207.91" y="2304.5" width="48.1818" height="96"/>
  <object id="55" x="3456.24" y="1440.67" width="48.1818" height="96"/>
  <object id="56" x="48.25" y="1776" width="95.75" height="48.25"/>
  <object id="57" x="48.125" y="1824.88" width="95.75" height="48.25"/>
  <object id="58" x="48.375" y="1873.63" width="95.75" height="48.25"/>
  <object id="59" x="48.375" y="1920.38" width="95.75" height="48.25"/>
  <object id="60" x="576.25" y="240" width="47.75" height="95.75"/>
  <object id="61" x="624.375" y="239.875" width="47.75" height="95.75"/>
  <object id="62" x="2112.13" y="192.875" width="47.75" height="95.75"/>
  <object id="63" x="2208.88" y="192.125" width="47.75" height="95.75"/>
 </objectgroup>
</map>
